!!!!SEGMENT: pl-sa--93-a-ii-33--002_pleyel-ignace-grande-sinfonie-in-d-andantino-grazioso.krn
!!!id: 17xx:656
!!!COM: Pleyel, Ignace
!!!OTL: Grande Sinfonie in D – Andantino grazioso
!!!PDT:
!!!SMS-siglum: PL-SA
!!!SMS-shelfmark: 93/A II 33
!!!NIFC-rismID: 1001034989
!!!URL-scan: http://bc.bdsandomierz.pl/dlibra/publication/1370/edition/1338/content
!!!ONB-nifc: UWAGA: części: Allegro molto, Andantino grazioso, Menuetto, Rondo
!!!SMS-variant:
!!!SMS-altvar:
**kern	**dynam	**kern	**dynam	**kern	**dynam	**kern	**dynam	**kern	**dynam	**kern	**dynam	**kern	**dynam
*part7	*part7	*part6	*part6	*part5	*part5	*part4	*part4	*part3	*part3	*part2	*part2	*part1	*part1
*group2	*	*group2	*	*group2	*	*group2	*	*group1	*	*group1	*	*	*
*staff7	*	*staff6	*	*staff5	*	*staff4	*	*staff3	*	*staff2	*	*staff1	*
*I"Baſso	*	*I"Alto Viola	*	*I"Violino 2.do	*	*I"Violino Primo	*	*I"Corno Secondo in.D.	*	*I"Corno Primo in D.	*	*I"Flauto Solo	*
*I'b	*	*I'a-vla	*	*I'vl 2	*	*I'vl 1	*	*I'cor 2	*	*I'cor 1	*	*I'fl	*
*clefF4	*	*clefC3	*	*clefG2	*	*clefG2	*	*clefG2	*	*clefG2	*	*clefG2	*
*	*	*	*	*	*	*	*	*ITrd6c10	*	*ITrd6c10	*	*	*
*k[f#c#g#]	*	*k[c#f#g#]	*	*k[f#g#c#]	*	*k[f#g#c#]	*	*k[f#c#]	*	*k[f#c#]	*	*k[f#c#g#]	*
*A:	*	*A:	*	*A:	*	*A:	*	*	*	*	*	*A:	*
*M6/8	*	*M6/8	*	*M6/8	*	*M6/8	*	*M6/8	*	*M6/8	*	*M6/8	*
*[A,A,B,B,C,D,D,E,E,F	*	*	*	*	*	*	*	*	*	*	*	*	*
*>A	*	*>A	*	*>A	*	*>A	*	*>A	*	*>A	*	*>A	*
!	!	!	!	!	!	!	!	!LO:TX:a:t=in D.	!	!	!	!	!
!LO:TX:a:B:t=Andantino \nGratioso	!	!LO:TX:a:t=Andantino \nGratioso	!	!LO:TX:a:B:t=Andantino Gratioso	!	!LO:TX:a:B:t=Andantino \nGratioso	!	!LO:TX:a:t=Andantino Gratioso	!	!LO:TX:a:Bi:t=Andantino Gratioso in D.	!	!LO:TX:a:Bi:t=Andantino Gratiuso	!
8r	.	8r	.	8r	.	8e/	pp	8r	.	8r	.	8r	.
=1	=1	=1	=1	=1	=1	=1	=1	=1	=1	=1	=1	=1	=1
!	!LO:DY:rj	!LO:TX:a:t=Con Sordini	!LO:DY:a:rj	!LO:TX:a:B:t=Con Sordini	!LO:DY:a	!	!	!LO:TX:a:t=7	!	!LO:TX:a:t=7	!	!LO:TX:a:t=7	!
!	!	!	!	!	!	!	!	!LO:N:vis=00	!	!LO:N:vis=00	!	!LO:N:vis=00	!
4A\	p	4A/	pp	8c#'/L	p	4cc#\	.	0.r	.	0.r	.	0.r	.
.	.	.	.	8e'/	.	.	.	.	.	.	.	.	.
8r	.	8r	.	8e'/J	.	8cc#\	.	.	.	.	.	.	.
4E\	.	4G#/	.	8B'/L	.	(8cc#\L	.	.	.	.	.	.	.
.	.	.	.	8e'/	.	8dd\)	.	.	.	.	.	.	.
!	!	!	!	!	!	!LO:TX:a:t=|:problem	!	!	!	!	!	!	!
8r	.	8r	.	8e'/J	.	8b\J	.	.	.	.	.	.	.
=2	=2	=2	=2	=2	=2	=2	=2	=2	=2	=2	=2	=2	=2
!	!	!	!	!	!	!LO:TX:a:B:t=Consordini	!	!	!	!	!	!	!
4AA/	.	4A/	.	8c#/L	.	(4.b/	.	.	.	.	.	.	.
.	.	.	.	8e/	.	.	.	.	.	.	.	.	.
8r	.	8r	.	8e/J	.	.	.	.	.	.	.	.	.
4A\	.	4A/	.	8c#/L	.	8a/)	.	.	.	.	.	.	.
.	.	.	.	8e/	.	8r	.	.	.	.	.	.	.
8r	.	8r	.	8e/J	.	8a/	.	.	.	.	.	.	.
=3	=3	=3	=3	=3	=3	=3	=3	=3	=3	=3	=3	=3	=3
4E\	.	4G#/	.	8B/L	.	4b\	.	.	.	.	.	.	.
.	.	.	.	8e/	.	.	.	.	.	.	.	.	.
8r	.	8G#/	.	8e/J	.	8b\	.	.	.	.	.	.	.
4E\	.	8G#/L	.	(8B/L	.	(8b\L	.	.	.	.	.	.	.
.	.	8A/	.	8c#/	.	8cc#\	.	.	.	.	.	.	.
8r	.	8B/J	.	8d/J)	.	8dd\J)	.	.	.	.	.	.	.
=4	=4	=4	=4	=4	=4	=4	=4	=4	=4	=4	=4	=4	=4
4A\	.	(4.B/	.	8d'/L	.	(4.dd\	.	.	.	.	.	.	.
.	.	.	.	8e'/	.	.	.	.	.	.	.	.	.
8r	.	.	.	8e'/J	.	.	.	.	.	.	.	.	.
4AA/	.	4A/)	.	8c#'/L	.	8cc#\)	.	.	.	.	.	.	.
.	.	.	.	8e'/	.	8r	.	.	.	.	.	.	.
8r	.	8r	.	8e'/J	.	8ee'\	.	.	.	.	.	.	.
!LO:LB:g=original	!	!	!	!	!	!	!	!	!	!	!	!	!
=5	=5	=5	=5	=5	=5	=5	=5	=5	=5	=5	=5	=5	=5
!	!	!	!	!	!	!	!	!LO:N:vis=0	!	!LO:N:vis=0	!	!LO:N:vis=0	!
4A\	.	4A/	.	8c#/L	.	8cc#\	.	1.r	.	1.r	.	1.r	.
.	.	.	.	8e/	.	8r	.	.	.	.	.	.	.
8r	.	8r	.	8e/J	.	8ee\	.	.	.	.	.	.	.
4E\	.	4G#/	.	8B/L	.	8b\	.	.	.	.	.	.	.
.	.	.	.	8e/	.	8r	.	.	.	.	.	.	.
8r	.	8r	.	8e/J	.	8ee\	.	.	.	.	.	.	.
=6	=6	=6	=6	=6	=6	=6	=6	=6	=6	=6	=6	=6	=6
(4.BB/	fz	(4.d#X\	rf	8f#/L	.	(4a\	.	.	.	.	.	.	.
!	!	!	!	!	!LO:DY:t=rf.	!	!	!	!	!	!	!	!
.	.	.	.	8a/	rf	.	.	.	.	.	.	.	.
.	.	.	.	8a/J	.	8aa\)	.	.	.	.	.	.	.
4.C#/)	.	4.e\)	.	8e/L	.	4gg#\	.	.	.	.	.	.	.
.	.	.	.	8g#/	.	.	.	.	.	.	.	.	.
.	.	.	.	8g#/J	.	8gg#\	.	.	.	.	.	.	.
=7	=7	=7	=7	=7	=7	=7	=7	=7	=7	=7	=7	=7	=7
.	.	.	.	.	.	8qqgg#/	.	.	.	.	.	.	.
(4.AA/	.	4.c#/	.	8c#/L	.	4ff#\	.	2.r	.	2.r	.	2.r	.
.	.	.	.	8f#/	.	.	.	.	.	.	.	.	.
.	.	.	.	8f#/J	.	8ff#\	.	.	.	.	.	.	.
.	.	.	.	.	.	8qqee/	.	.	.	.	.	.	.
4.BB/)	.	4.A/	.	8B/L	.	8dd#X\L	.	.	.	.	.	.	.
.	.	.	.	8f#/	.	8cc#\	.	.	.	.	.	.	.
.	.	.	.	8f#/J	.	8dd#\J	.	.	.	.	.	.	.
!	!	!LO:LB:g=original	!	!	!	!LO:LB:g=original	!	!	!	!	!	!	!
=	=	=	=	=	=	=	=	=	=	=	=	=	=
!LO:TX:a:t=P:problem:mixed beam	!	!	!	!	!	!	!	!	!	!	!	!	!
8EE/L	.	4.A/	.	4.d#X/	.	4.ff#\	.	4r	.	4r	.	4r	.
8E\	.	.	.	.	.	.	.	.	.	.	.	.	.
8E\J	.	.	.	.	.	.	.	8r	.	8r	.	4r	.
!	!	!LO:N:vis=4.	!	!	!	!	!	!	!	!	!	!	!
4E\	.	4G#/	.	4e/	.	4ee\	.	4r	.	4r	.	.	.
.	.	.	.	.	.	.	.	.	.	.	.	8r	.
!	!	!	!	!LO:LB:g=original	!	!	!	!	!	!	!	!	!
=8:|!|:	=8:|!|:	=8:|!|:	=8:|!|:	=8:|!|:	=8:|!|:	=8:|!|:	=8:|!|:	=8:|!|:	=8:|!|:	=8:|!|:	=8:|!|:	=8:|!	=8:|!
*>B	*	*>B	*	*>B	*	*>B	*	*>B	*	*>B	*	*>B	*
!	!	!	!	!	!	!	!	!	!	!	!	!LO:TX:a:t=P:problem:jednostronna repetycja	!
8r	.	8c#/	.	8e/	.	8ee\	.	8r	.	8r	.	8r	.
=9	=9	=9	=9	=9	=9	=9	=9	=9	=9	=9	=9	=9	=9
!LO:TX:a:t=1	!	!	!	!	!	!	!	!LO:TX:a:t=7	!	!LO:TX:a:t=7	!	!LO:TX:a:t=7	!
!	!	!	!	!	!	!	!	!LO:N:vis=00	!	!LO:N:vis=00	!	!LO:N:vis=00	!
2.r	.	(8c#/L	.	(8e/L	.	(8ee\L	.	0.r	.	0.r	.	0.r	.
.	.	8A/	.	8c#/	.	8cc#\	.	.	.	.	.	.	.
.	.	8B/J)	.	8d/J)	.	8dd\J)	.	.	.	.	.	.	.
.	.	(8c#/L	.	(8e/L	.	(8ee\L	.	.	.	.	.	.	.
.	.	8A/	.	8c#/	.	8cc#\	.	.	.	.	.	.	.
.	.	8c#/J)	.	8e/J)	.	8aa\J)	.	.	.	.	.	.	.
=10	=10	=10	=10	=10	=10	=10	=10	=10	=10	=10	=10	=10	=10
!LO:TX:a:t=P:problem:mixed beam	!	!	!	!	!	!	!	!	!	!	!	!	!
8EE/L	.	(4.c#/	.	(4.e/	.	(4.ee\	.	.	.	.	.	.	.
8E\	.	.	.	.	.	.	.	.	.	.	.	.	.
8E\J	.	.	.	.	.	.	.	.	.	.	.	.	.
4E\	.	8B/)	.	8d/)	.	8dd\)	.	.	.	.	.	.	.
.	.	8r	.	8r	.	8r	.	.	.	.	.	.	.
8r	.	8B/	.	8d/	.	8dd\	.	.	.	.	.	.	.
=11	=11	=11	=11	=11	=11	=11	=11	=11	=11	=11	=11	=11	=11
!LO:TX:a:t=1	!	!	!	!	!	!	!	!	!	!	!	!	!
2.r	.	(8B/L	.	8d/L	.	(8dd\L	.	.	.	.	.	.	.
.	.	8G#/	.	8B/	.	8b\	.	.	.	.	.	.	.
.	.	8A/J)	.	8c#/J	.	8cc#\J)	.	.	.	.	.	.	.
.	.	(8B/L	.	8d/L	.	8dd\L	.	.	.	.	.	.	.
!	!	!LO:SIC:v:s=8G#	!	!	!	!	!	!	!	!	!	!	!
.	.	8A/	.	8B/	.	8bb\J	.	.	.	.	.	.	.
.	.	8B/J)	.	8d/J	.	(16gg#\LL	.	.	.	.	.	.	.
.	.	.	.	.	.	16ee\JJ)	.	.	.	.	.	.	.
=12	=12	=12	=12	=12	=12	=12	=12	=12	=12	=12	=12	=12	=12
!LO:TX:a:t=P:problem:mixed beam	!	!	!	!	!	!	!	!	!	!	!	!	!
8AA/L	.	4.B/	.	(4.d/	.	(4.dd\	.	.	.	.	.	.	.
8A\	.	.	.	.	.	.	.	.	.	.	.	.	.
8A\J	.	.	.	.	.	.	.	.	.	.	.	.	.
4A\	.	4A/	.	4c#/)	.	8cc#\)	.	.	.	.	.	.	.
.	.	.	.	.	.	8r	.	.	.	.	.	.	.
8r	.	8r	.	8r	.	8ee\	.	.	.	.	.	.	.
!LO:LB:g=original	!	!	!	!	!	!	!	!	!	!	!	!	!
=13	=13	=13	=13	=13	=13	=13	=13	=13	=13	=13	=13	=13	=13
!	!	!LO:TX:a:t=P:problem:brak taktu	!	!	!	!	!	!	!	!	!	!	!
!	!	!	!	!	!	!	!	!LO:N:vis=0	!	!LO:N:vis=00	!	!LO:N:vis=0	!
4A\	.	2.ryy	.	8c#/L	.	8cc#\	.	1.r	.	1.r	.	1.r	.
.	.	.	.	8e/	.	8r	.	.	.	.	.	.	.
8r	.	.	.	8e/J	.	8ee\	.	.	.	.	.	.	.
4E\	.	.	.	8B/L	.	8b\	.	.	.	.	.	.	.
.	.	.	.	8e/	.	8r	.	.	.	.	.	.	.
8r	.	.	.	8e/J	.	8ee\	.	.	.	.	.	.	.
=14	=14	=14	=14	=14	=14	=14	=14	=14	=14	=14	=14	=14	=14
4A\	.	4A/	.	8c#/L	.	8cc#\	.	.	.	.	.	.	.
.	.	.	.	8e/	.	8r	.	.	.	.	.	.	.
8r	.	8r	.	8e/J	.	8ee\	.	.	.	.	.	.	.
!	!	!	!	!	!	!LO:LB:g=original	!	!	!	!	!	!	!
8E\	.	4G#/	.	8B/L	.	8b\	.	.	.	.	.	.	.
8r	.	.	.	8e/	.	8r	.	.	.	.	.	.	.
!	!LO:DY:t=fz.	!	!	!	!	!	!	!	!	!	!	!	!
8C#/	fz	8r	.	8e/J	.	8aa\	.	.	.	.	.	.	.
=15	=15	=15	=15	=15	=15	=15	=15	=15	=15	=15	=15	=15	=15
!	!	!	!	!	!LO:DY:a:t=rf.	!	!	!	!	!	!	!	!
4D\	.	4A/	.	8A/L	rf	(4ff#\	.	2.r	.	2.r	.	2.r	.
.	.	.	.	8f#/	.	.	.	.	.	.	.	.	.
8D\	.	8B/	.	8d/J	.	8dd\)	.	.	.	.	.	.	.
4E\	.	8.A/L	.	8.c#/L	.	(8.cc#\L	.	.	.	.	.	.	.
.	.	16B/K	.	16d/K	.	16dd\K	.	.	.	.	.	.	.
8EE/	.	8G#/J	.	8B/J	.	8b\J)	.	.	.	.	.	.	.
=	=	=	=	=	=	=	=	=	=	=	=	=	=
!LO:TX:a:t=P:problem:mixed beam	!	!	!	!	!	!	!	!	!	!	!	!	!
8AA/L	.	4.G#/	.	4.e 4.B/	.	(4.b/	.	4r	.	4r	.	4r	.
8A\	.	.	.	.	.	.	.	.	.	.	.	.	.
8A\J	.	.	.	.	.	.	.	8r	.	8r	.	4r	.
!	!	!	!	!LO:N:vis=4	!	!	!	!	!	!	!	!	!
4A\	.	8A/	.	8e 8c#/	.	8a/)	.	4r	.	4r	.	.	.
!	!	!	!	!	!	!	!	!	!	!	!	!LO:TX:a:t=P:problem:brak repetycji	!
.	.	8r	.	8r	.	8r	.	.	.	.	.	8r	.
!	!	!LO:LB:g=original	!	!	!	!	!	!	!	!	!	!	!
=16:|!	=16:|!	=16:|!	=16:|!	=16:|!	=16:|!	=16:|!	=16:|!	=16:|!|:	=16:|!	=16:|!	=16:|!	=16	=16
*>C	*	*>C	*	*>C	*	*>C	*	*>C	*	*>C	*	*>C	*
*k[]	*	*k[fngncn]	*	*k[]	*	*k[]	*	*	*	*	*	*k[]	*
*a:	*	*a:	*	*a:	*	*a:	*	*	*	*	*	*a:	*
!	!	!LO:TX:a:t=P:problem:obustronna repetycja	!	!LO:TX:a:t=P:problem:obustronna repetycja	!	!	!	!LO:TX:a:t=P:problem:obustronna repetycja	!	!	!	!	!
!LO:TX:a:t=P:problem:omyłkowo kasownik Dn zamiast Cn	!	!LO:TX:a:t=P:problem:kasowniki fn gn cn	!	!	!	!	!	!	!	!	!	!	!
8r	.	8r	.	8r	.	8r	.	8r	p	8r	.	8ryy	.
!	!	!	!	!LO:LB:g=original	!	!	!	!	!	!	!	!	!
=17	=17	=17	=17	=17	=17	=17	=17	=17	=17	=17	=17	=17	=17
!LO:TX:b:t=Violonzello	!	!LO:TX:a:t=4	!	!LO:TX:a:t=4	!	!LO:TX:a:t=4	!	!	!	!	!LO:DY:rj	!LO:TX:a:t=20	!
!LO:TX:a:i:t=Solo	!	!LO:N:vis=00	!	!LO:N:vis=00	!	!LO:N:vis=0	!	!	!	!	!	!LO:N:vis=00	!
8AA/L	.	0.r	.	0.r	.	0.r	.	2.AA/	.	[2.A/	p	0.r	.
8C/	.	.	.	.	.	.	.	.	.	.	.	.	.
8E/J	.	.	.	.	.	.	.	.	.	.	.	.	.
8AA/L	.	.	.	.	.	.	.	.	.	.	.	.	.
8D/	.	.	.	.	.	.	.	.	.	.	.	.	.
8F/J	.	.	.	.	.	.	.	.	.	.	.	.	.
=18	=18	=18	=18	=18	=18	=18	=18	=18	=18	=18	=18	=18	=18
8AA/L	.	.	.	.	.	.	.	4AA/	.	4A/]	.	.	.
8C/	.	.	.	.	.	.	.	.	.	.	.	.	.
8E/J	.	.	.	.	.	.	.	8r	.	8r	.	.	.
8AA/L	.	.	.	.	.	.	.	4r	.	4r	.	.	.
8C/	.	.	.	.	.	.	.	.	.	.	.	.	.
8E/J	.	.	.	.	.	.	.	8r	.	8r	.	.	.
!LO:LB:g=original	!	!	!	!	!	!	!	!	!	!	!	!	!
=19	=19	=19	=19	=19	=19	=19	=19	=19	=19	=19	=19	=19	=19
*	*	*	*	*	*	*	*	*2\right	*	*2\right	*	*	*
8EE/L	.	.	.	.	.	.	.	2.e\	.	2.e\	.	.	.
8BB/	.	.	.	.	.	.	.	.	.	.	.	.	.
8E/J	.	.	.	.	.	.	.	.	.	.	.	.	.
8EE/L	.	.	.	.	.	.	.	.	.	.	.	.	.
8BB/	.	.	.	.	.	.	.	.	.	.	.	.	.
8E/J	.	.	.	.	.	.	.	.	.	.	.	.	.
=20	=20	=20	=20	=20	=20	=20	=20	=20	=20	=20	=20	=20	=20
8AA/L	.	.	.	.	.	.	.	4.A/	.	4.e\	.	.	.
8C/	.	.	.	.	.	.	.	.	.	.	.	.	.
8E/J	.	.	.	.	.	.	.	.	.	.	.	.	.
8EE/L	.	.	.	.	.	.	.	4e\	.	4e\	.	.	.
8BB/	.	.	.	.	.	.	.	.	.	.	.	.	.
8E/J	.	.	.	.	.	.	.	8r	.	8r	.	.	.
=21	=21	=21	=21	=21	=21	=21	=21	=21	=21	=21	=21	=21	=21
!	!	!	!LO:DY:t=rf.	!	!	!	!	!LO:TX:a:t=22	!	!LO:TX:a:t=22	!	!	!
!	!	!	!	!	!	!	!	!LO:N:vis=00	!	!LO:N:vis=00	!	!LO:N:vis=00	!
8AA/L	.	4.A/	rf	4.c/	.	(>4.e/	.	0.r	.	0.r	.	0.r	.
8C/	.	.	.	.	.	.	.	.	.	.	.	.	.
!	!	!	!	!	!LO:DY:a:t=rf.	!	!	!	!	!	!	!	!
8E/J	.	.	.	.	rf	.	.	.	.	.	.	.	.
!	!	!	!	!	!	!	!LO:DY:a:t=rf.	!	!	!	!	!	!
8GG/L	.	4.G/	.	4.B/	.	4.f 4.G/)	rf	.	.	.	.	.	.
!	!LO:DY:t=rf.	!	!	!	!	!	!	!	!	!	!	!	!
8D/	rf	.	.	.	.	.	.	.	.	.	.	.	.
8F/J	.	.	.	.	.	.	.	.	.	.	.	.	.
=22	=22	=22	=22	=22	=22	=22	=22	=22	=22	=22	=22	=22	=22
8CC/L	.	4C/	.	4c/	.	4e 4G/	.	.	.	.	.	.	.
8GG/	.	.	.	.	.	.	.	.	.	.	.	.	.
8C/J	.	8r	.	8r	.	8r	.	.	.	.	.	.	.
8CC/L	.	4r	.	4r	.	4r	.	.	.	.	.	.	.
8GG/	.	.	.	.	.	.	.	.	.	.	.	.	.
8C/J	.	8r	.	8r	.	8r	.	.	.	.	.	.	.
=23	=23	=23	=23	=23	=23	=23	=23	=23	=23	=23	=23	=23	=23
!	!	!LO:TX:a:t=12	!	!LO:TX:a:t=2	!	!LO:TX:a:t=2	!	!	!	!	!	!	!
!	!	!LO:N:vis=00	!	!LO:N:vis=0	!	!LO:N:vis=0	!	!	!	!	!	!	!
8CC/L	.	0.r	.	1.r	.	1.r	.	.	.	.	.	.	.
8GG/	.	.	.	.	.	.	.	.	.	.	.	.	.
8C/J	.	.	.	.	.	.	.	.	.	.	.	.	.
8GG/L	.	.	.	.	.	.	.	.	.	.	.	.	.
8D/	.	.	.	.	.	.	.	.	.	.	.	.	.
8G/J	.	.	.	.	.	.	.	.	.	.	.	.	.
=24	=24	=24	=24	=24	=24	=24	=24	=24	=24	=24	=24	=24	=24
8CC/L	.	.	.	.	.	.	.	.	.	.	.	.	.
8GG/	.	.	.	.	.	.	.	.	.	.	.	.	.
8C/J	.	.	.	.	.	.	.	.	.	.	.	.	.
4CC/	.	.	.	.	.	.	.	.	.	.	.	.	.
8r	.	.	.	.	.	.	.	.	.	.	.	.	.
!LO:LB:g=original	!	!	!	!	!	!	!	!	!	!	!	!	!
=25	=25	=25	=25	=25	=25	=25	=25	=25	=25	=25	=25	=25	=25
!LO:TX:a:t=10	!	!	!	!	!LO:DY:a	!	!LO:DY:rj	!	!	!	!	!	!
!LO:N:vis=00	!	!	!	!	!	!	!	!LO:N:vis=00	!	!LO:N:vis=00	!	!LO:N:vis=00	!
0.r	.	.	.	8c'/L	pp	4gg\	pp	0.r	.	0.r	.	0.r	.
.	.	.	.	8e'/	.	.	.	.	.	.	.	.	.
.	.	.	.	8g'/J	.	8gg\	.	.	.	.	.	.	.
.	.	.	.	8c'/L	.	(8gg\L	.	.	.	.	.	.	.
.	.	.	.	8e'/	.	8ccc\	.	.	.	.	.	.	.
.	.	.	.	8g'/J	.	8aa\J)	.	.	.	.	.	.	.
=26	=26	=26	=26	=26	=26	=26	=26	=26	=26	=26	=26	=26	=26
.	.	.	.	8B/L	.	4gg\	.	.	.	.	.	.	.
.	.	.	.	8d/	.	.	.	.	.	.	.	.	.
.	.	.	.	8g/J	.	8gg\	.	.	.	.	.	.	.
.	.	.	.	8B/L	.	4gg\	.	.	.	.	.	.	.
.	.	.	.	8d/	.	.	.	.	.	.	.	.	.
.	.	.	.	8g/J	.	8r	.	.	.	.	.	.	.
!	!	!	!	!	!	!LO:LB:g=original	!	!	!	!	!	!	!
=27	=27	=27	=27	=27	=27	=27	=27	=27	=27	=27	=27	=27	=27
!	!	!LO:N:vis=00	!	!	!	!	!	!	!	!	!	!	!
.	.	0.r	.	8c/L	.	4gg\	.	.	.	.	.	.	.
.	.	.	.	8e/	.	.	.	.	.	.	.	.	.
.	.	.	.	8g/J	.	8gg\	.	.	.	.	.	.	.
.	.	.	.	8c/L	.	(8gg\L	.	.	.	.	.	.	.
.	.	.	.	8e/	.	8ccc\	.	.	.	.	.	.	.
.	.	.	.	8g/J	.	8aa\J)	.	.	.	.	.	.	.
=28	=28	=28	=28	=28	=28	=28	=28	=28	=28	=28	=28	=28	=28
.	.	.	.	8B/L	.	4gg\	.	.	.	.	.	.	.
.	.	.	.	8d/	.	.	.	.	.	.	.	.	.
.	.	.	.	8g/J	.	8gg\	.	.	.	.	.	.	.
.	.	.	.	8B/L	.	4gg\	.	.	.	.	.	.	.
.	.	.	.	8d/	.	.	.	.	.	.	.	.	.
.	.	.	.	8g/J	.	8r	.	.	.	.	.	.	.
=29	=29	=29	=29	=29	=29	=29	=29	=29	=29	=29	=29	=29	=29
!LO:N:vis=00	!	!	!	!	!	!	!	!LO:N:vis=00	!	!LO:N:vis=00	!	!LO:N:vis=00	!
0.r	.	.	.	8c/L	.	4gg\	.	0.r	.	0.r	.	0.r	.
.	.	.	.	8e/	.	.	.	.	.	.	.	.	.
.	.	.	.	8g/J	.	8gg#X\	.	.	.	.	.	.	.
.	.	.	.	8c/L	.	(8ccc\L	.	.	.	.	.	.	.
.	.	.	.	8e/	.	8bb\	.	.	.	.	.	.	.
.	.	.	.	8g/J	.	8aa\J)	.	.	.	.	.	.	.
=30	=30	=30	=30	=30	=30	=30	=30	=30	=30	=30	=30	=30	=30
.	.	.	.	8B/L	.	(8aa\L	.	.	.	.	.	.	.
.	.	.	.	8d/	.	8gg#X\)	.	.	.	.	.	.	.
.	.	.	.	8fn/J	.	8gg#\J	.	.	.	.	.	.	.
.	.	.	.	8B/L	.	4gg#\	.	.	.	.	.	.	.
.	.	.	.	8d/	.	.	.	.	.	.	.	.	.
.	.	.	.	8f/J	.	8r	.	.	.	.	.	.	.
!	!	!	!	!LO:LB:g=original	!	!	!	!	!	!	!	!	!
=31	=31	=31	=31	=31	=31	=31	=31	=31	=31	=31	=31	=31	=31
!	!	!LO:N:vis=00	!	!	!	!	!	!	!	!	!	!	!
.	.	0.r	.	8B/L	.	8r	.	.	.	.	.	.	.
.	.	.	.	8d/	.	8gg#X\L	.	.	.	.	.	.	.
.	.	.	.	8fn/J	.	8gg#\J	.	.	.	.	.	.	.
*	*	*	*	*rep	*	*	*	*	*	*	*	*	*
.	.	.	.	8B/L	.	8gg#\L	.	.	.	.	.	.	.
.	.	.	.	8d/	.	8bb\	.	.	.	.	.	.	.
.	.	.	.	8f/J	.	8aa\J	.	.	.	.	.	.	.
*	*	*	*	*Xrep	*	*	*	*	*	*	*	*	*
=32	=32	=32	=32	=32	=32	=32	=32	=32	=32	=32	=32	=32	=32
.	.	.	.	8B/L	.	(8aa\L	.	.	.	.	.	.	.
.	.	.	.	8d/	.	8gg\)	.	.	.	.	.	.	.
!	!	!	!	!	!	!LO:TX:a:t=|:problem	!	!	!	!	!	!	!
.	.	.	.	8f/J	.	8gg\J	.	.	.	.	.	.	.
*	*	*	*	*rep	*	*	*	*	*	*	*	*	*
.	.	.	.	8B/L	.	4gg\	.	.	.	.	.	.	.
.	.	.	.	8d/	.	.	.	.	.	.	.	.	.
.	.	.	.	8f/J	.	8r	.	.	.	.	.	.	.
*	*	*	*	*Xrep	*	*	*	*	*	*	*	*	*
=33	=33	=33	=33	=33	=33	=33	=33	=33	=33	=33	=33	=33	=33
!LO:N:vis=0	!	!	!	!	!	!	!	!LO:N:vis=00	!	!LO:N:vis=00	!	!LO:N:vis=00	!
1.r	.	.	.	8B/L	.	8r	.	0.r	.	0.r	.	0.r	.
.	.	.	.	8d/	.	8gg#X\L	.	.	.	.	.	.	.
.	.	.	.	8f/J	.	8gg#\J	.	.	.	.	.	.	.
*	*	*	*	*rep	*	*	*	*	*	*	*	*	*
.	.	.	.	8B/L	.	(8gg#\L	.	.	.	.	.	.	.
.	.	.	.	8d/	.	8bb\	.	.	.	.	.	.	.
.	.	.	.	8f/J	.	8aa\J)	.	.	.	.	.	.	.
*	*	*	*	*Xrep	*	*	*	*	*	*	*	*	*
=34	=34	=34	=34	=34	=34	=34	=34	=34	=34	=34	=34	=34	=34
.	.	.	.	8B/L	.	(8aa\L	.	.	.	.	.	.	.
.	.	.	.	8d/	.	8gg#X\)	.	.	.	.	.	.	.
!	!	!	!	!	!	!LO:TX:a:t=|:problem	!	!	!	!	!	!	!
.	.	.	.	8f/J	.	8gg#\J	.	.	.	.	.	.	.
*	*	*	*	*rep	*	*	*	*	*	*	*	*	*
.	.	.	.	8B/L	.	(8gg#\L	.	.	.	.	.	.	.
.	.	.	.	8d/	.	8bb\	.	.	.	.	.	.	.
.	.	.	.	8f/J	.	8aa\J)	.	.	.	.	.	.	.
*	*	*	*	*Xrep	*	*	*	*	*	*	*	*	*
!	!	!	!	!	!	!LO:LB:g=original	!	!	!	!	!	!	!
=35	=35	=35	=35	=35	=35	=35	=35	=35	=35	=35	=35	=35	=35
*2\right	*	*	*	*	*	*	*	*	*	*	*	*	*
!LO:TX:a:t=Tutti	!	!	!	!	!	!	!	!	!	!	!	!	!
2.E\	.	2.E/	.	8B/L	.	(8aa\L	.	.	.	.	.	.	.
.	.	.	.	8d/	.	8gg#X\)	.	.	.	.	.	.	.
!	!	!	!	!	!	!LO:TX:a:t=|:problem	!	!	!	!	!	!	!
.	.	.	.	8f/J	.	8gg#\J	.	.	.	.	.	.	.
*	*	*	*	*rep	*	*	*	*	*	*	*	*	*
.	.	.	.	8B/L	.	(8gg#\L	.	.	.	.	.	.	.
.	.	.	.	8d/	.	8ffn\)	.	.	.	.	.	.	.
!	!	!	!	!	!	!LO:TX:a:t=|:problem	!	!	!	!	!	!	!
.	.	.	.	8f/J	.	8ff\J	.	.	.	.	.	.	.
*	*	*	*	*Xrep	*	*	*	*	*	*	*	*	*
=36	=36	=36	=36	=36	=36	=36	=36	=36	=36	=36	=36	=36	=36
2.E\	.	4.G#X/	.	8B/L	.	(8ff\L	.	.	.	.	.	.	.
.	.	.	.	8d/	.	8ee\)	.	.	.	.	.	.	.
!	!	!	!	!	!	!LO:TX:a:t=|:problem	!	!	!	!	!	!	!
.	.	.	.	8e/J	.	8ee\J	.	.	.	.	.	.	.
.	.	4.B/	.	8G#X/L	.	(8ee\L	.	.	.	.	.	.	.
.	.	.	.	8B/	.	8dd\)	.	.	.	.	.	.	.
!	!	!	!	!	!	!LO:TX:a:t=|:problem	!	!	!	!	!	!	!
.	.	.	.	8e/J	.	8dd\J	.	.	.	.	.	.	.
=37	=37	=37	=37	=37	=37	=37	=37	=37	=37	=37	=37	=37	=37
*	*	*tremolo	*	*	*	*2\right	*	*	*	*	*	*2\right	*
!	!	!	!	!	!	!	!	!LO:N:vis=00	!	!LO:N:vis=00	!	!	!
8F\L	.	8A/L	.	8A/L	.	2.cc\	<	0.r	.	0.r	.	2.ccc\	.
8F\	.	8A/	<	8c/	.	.	.	.	.	.	.	.	.
!	!	!	!	!	!LO:HP:a	!	!	!	!	!	!	!	!
8F\J	.	8A/J	.	8c/J	<	.	.	.	.	.	.	.	.
*tremolo	*	*	*	*tremolo	*	*	*	*	*	*	*	*	*
8F\L	.	8A/L	.	8c/L	.	.	.	.	.	.	.	.	.
8F\	.	8A/	.	8c/	.	.	.	.	.	.	.	.	.
8F\J	.	8A/J	.	8c/J	.	.	.	.	.	.	.	.	.
=38	=38	=38	=38	=38	=38	=38	=38	=38	=38	=38	=38	=38	=38
8F\L	.	8A/L	.	8c/L	.	2.aa\	.	.	.	.	.	2.ccc\	.
8F\	.	8A/	.	8c/	.	.	.	.	.	.	.	.	.
8F\	.	8A/J	.	8c/J	.	.	.	.	.	.	.	.	.
8F\	.	8A/L	.	8c/L	.	.	.	.	.	.	.	.	.
8F\	.	8A/	.	8c/	.	.	.	.	.	.	.	.	.
8F\J	.	8A/J	.	8c/J	.	.	.	.	.	.	.	.	.
*Xtremolo	*	*Xtremolo	*	*Xtremolo	*	*	*	*	*	*	*	*	*
=39	=39	=39	=39	=39	=39	=39	=39	=39	=39	=39	=39	=39	=39
!	!LO:DY:t=fz.	!LO:TX:a:t=P:problem:diminuendolike accent	!	!LO:TX:a:t=P:problem:diminuendolike accent	!	!	!LO:DY:rj	!	!	!	!	!	!
[2.E\	fz	[>2.G^>/	f	[2.c^>/	.	(8bb-X\L	f	.	.	.	.	2.ccc\	.
.	.	.	.	.	.	8gg\	p	.	.	.	.	.	.
.	.	.	.	.	.	8ee\J)	.	.	.	.	.	.	.
.	.	.	p	.	.	(8cc/L	.	.	.	.	.	.	.
.	.	.	.	.	.	8b-X/	.	.	.	.	.	.	.
.	.	.	.	.	.	8g/J)	.	.	.	.	.	.	.
=40	=40	=40	=40	=40	=40	=40	=40	=40	=40	=40	=40	=40	=40
2.E\]	.	2.G/]	.	2.c/]	.	(8e/L	.	.	.	.	.	2.ccc\	.
.	.	.	.	.	.	8g/	.	.	.	.	.	.	.
.	.	.	.	.	.	8cc/J)	.	.	.	.	.	.	.
.	.	.	.	.	.	(8ee\L	.	.	.	.	.	.	.
.	.	.	.	.	.	8gg\	.	.	.	.	.	.	.
.	.	.	.	.	.	8bb-X\J)	.	.	.	.	.	.	.
=41	=41	=41	=41	=41	=41	=41	=41	=41	=41	=41	=41	=41	=41
!	!LO:DY:t=fz.	!LO:TX:a:t=P:problem:diminuendolike accent	!	!	!	!	!LO:DY:t=f.	!LO:N:vis=0	!	!LO:N:vis=0	!	!LO:TX:a:t=P:problem:takty 41-44 zapisane repetycją	!
[2.F\	fz	[>2.A^>/	.	2.c^>/	.	(8aa\L	f	1.r	.	1.r	.	2.ccc\yy	.
!	!	!	!	!	!	!	!LO:DY:t=p.	!	!	!	!	!	!
.	.	.	.	.	.	8ff\	p	.	.	.	.	.	.
.	.	.	.	.	.	8cc\J)	.	.	.	.	.	.	.
.	.	.	.	.	.	(8a/L	.	.	.	.	.	.	.
.	.	.	.	.	.	8f/	.	.	.	.	.	.	.
.	.	.	.	.	.	8c/J)	.	.	.	.	.	.	.
=42	=42	=42	=42	=42	=42	=42	=42	=42	=42	=42	=42	=42	=42
2.F\]	.	2.A/]	.	2.c/	]]	(8A/L	.	.	.	.	.	2.ccc\yy	.
.	.	.	.	.	.	8c/	.	.	.	.	.	.	.
.	.	.	.	.	.	8f/J)	.	.	.	.	.	.	.
.	.	.	.	.	.	(8a\L	.	.	.	.	.	.	.
.	.	.	.	.	.	8cc\	.	.	.	.	.	.	.
.	.	.	.	.	.	8ff\J)	.	.	.	.	.	.	.
!	!	!LO:LB:g=original	!	!	!	!LO:LB:g=original	!	!	!	!	!	!	!
=43	=43	=43	=43	=43	=43	=43	=43	=43	=43	=43	=43	=43	=43
*	*	*^	*	*	*	*	*	*	*	*	*	*	*
*	*	*2\right	*	*	*	*	*	*	*	*	*	*	*	*
!	!	!	!	!	!LO:TX:a:t=P:problem:takty 43-44 zapisane repetycją	!	!	!	!	!	!	!	!	!
!	!	!	!	!LO:DY:a	!LO:TX:a:t=P:problem:diminuendolike accent	!	!	!	!	!	!	!	!	!
[2.D#X\	.	2.F#X\	[>2.A/	rf	2.c^>/yy	.	(8aa\L	f	2.A/	f	[>2.A/	f	2.ccc\yy	.
.	.	.	.	.	.	.	8ff#X\	p	.	.	.	.	.	.
.	.	.	.	.	.	.	8cc\J)	.	.	.	.	.	.	.
.	.	.	.	.	.	.	(8a/L	.	.	.	.	.	.	.
.	.	.	.	.	.	.	8f#y/	.	.	.	.	p	.	.
.	.	.	.	.	.	.	8c/J)	.	.	.	.	.	.	.
=44	=44	=44	=44	=44	=44	=44	=44	=44	=44	=44	=44	=44	=44	=44
!	!LO:DY:t=fz.	!	!	!	!	!	!	!	!	!	!	!	!	!
2.D#X\]	fz	2.F#X\	2.A/]	.	2.c/yy	.	(8A/L	.	2.A/	p	2.A/]	.	2.ccc\yy	.
.	.	.	.	.	.	.	8c/	.	.	.	.	.	.	.
!	!	!	!	!	!	!	!LO:SIC:v:s=8f#	!	!	!	!	!	!	!
.	.	.	.	.	.	.	8f/J)	.	.	.	.	.	.	.
.	.	.	.	.	.	.	(8a\L	.	.	.	.	.	.	.
.	.	.	.	.	.	.	8cc\	.	.	.	.	.	.	.
.	.	.	.	.	.	.	8aa\J)	p	.	.	.	.	.	.
*	*	*v	*v	*	*	*	*	*	*	*	*	*	*	*
!LO:LB:g=original	!	!	!	!LO:LB:g=original	!	!	!	!LO:LB:g=original	!	!	!	!	!
=45	=45	=45	=45	=45	=45	=45	=45	=45	=45	=45	=45	=45	=45
!	!	!LO:SIC:v:s=4G#	!	!	!	!	!	!	!	!	!	!	!
4E\	.	4G/	.	4B/	.	8gg#X\L	.	4e\	.	4e\	.	4bb\	.
.	.	.	.	.	.	8ee\	.	.	.	.	.	.	.
8r	.	8r	.	8r	.	8ee\J	.	8r	.	8r	.	8r	.
*	*	*	*	*	*	*tremolo	*	*	*	*	*	*	*
4r	.	4r	.	4r	.	8ee\L	.	4r	.	4r	.	4r	.
.	.	.	.	.	.	8ee\	.	.	.	.	.	.	.
8r	.	8r	.	8r	.	8ee\J	.	8r	.	8r	.	8r	.
*	*	*	*	*	*	*Xtremolo	*	*	*	*	*	*	*
!	!	!	!	!	!	!	!	!	!	!LO:LB:g=original	!	!	!
=46	=46	=46	=46	=46	=46	=46	=46	=46	=46	=46	=46	=46	=46
!	!	!	!	!	!LO:DY:rj	!	!	!LO:TX:a:t=2	!	!LO:TX:a:t=2	!	!LO:TX:a:t=2	!
!	!	!	!	!	!	!	!	!LO:N:vis=0	!	!LO:N:vis=0	!	!LO:N:vis=0	!
[2.E\	p	(2.A/	p	(2.c/	p	(8ee\L	.	1.r	.	1.r	.	1.r	.
.	.	.	.	.	.	8cc\	.	.	.	.	.	.	.
.	.	.	.	.	.	8a\J)	.	.	.	.	.	.	.
.	.	.	.	.	.	(8ee\L	.	.	.	.	.	.	.
.	.	.	.	.	.	8cc\	.	.	.	.	.	.	.
.	.	.	.	.	.	8a\J)	.	.	.	.	.	.	.
=47	=47	=47	=47	=47	=47	=47	=47	=47	=47	=47	=47	=47	=47
!	!	!	!	!	!	!LO:TX:a:t=P:problem:mixed beam	!	!	!	!	!	!	!
4E\]	.	4G#X/)	.	4B/)	.	8e/L	.	.	.	.	.	.	.
.	.	.	.	.	.	8ee\	.	.	.	.	.	.	.
8r	.	8r	.	8r	.	8ee\J	.	.	.	.	.	.	.
*	*	*	*	*	*	*tremolo	*	*	*	*	*	*	*
4r	.	4r	.	4r	.	8ee\L	.	.	.	.	.	.	.
.	.	.	.	.	.	8ee\	.	.	.	.	.	.	.
8r	.	8r	.	8r	.	8ee\J	.	.	.	.	.	.	.
*	*	*	*	*	*	*Xtremolo	*	*	*	*	*	*	*
=48	=48	=48	=48	=48	=48	=48	=48	=48	=48	=48	=48	=48	=48
[2.E\	.	(2.A/	.	(2.c/	.	(8ee\L	.	[2.e\	.	[2.e\	.	(2.aa\	.
.	.	.	.	.	.	8cc\	.	.	.	.	.	.	.
.	.	.	.	.	.	8a\J)	.	.	.	.	.	.	.
.	.	.	.	.	.	(8ee\L	.	.	.	.	.	.	.
.	.	.	.	.	.	8cc\	.	.	.	.	.	.	.
.	.	.	.	.	.	8a\J)	.	.	.	.	.	.	.
=49	=49	=49	=49	=49	=49	=49	=49	=49	=49	=49	=49	=49	=49
!	!	!	!	!	!	!LO:TX:a:t=P:problem:mixed beam	!	!	!	!	!	!	!
2.E\_	.	4G#X/)	.	4B/)	.	8e/L	.	2.e\_	.	2.e\_	.	4gg#X\)	.
.	.	.	.	.	.	8ee\	.	.	.	.	.	.	.
.	.	8r	.	8r	.	8ee\J	.	.	.	.	.	8r	.
.	.	(4.A/	.	(>4.c/	.	(8ee\L	.	.	.	.	.	(4.aa\	.
.	.	.	.	.	.	8cc\	.	.	.	.	.	.	.
.	.	.	.	.	.	8a\J)	.	.	.	.	.	.	.
=50	=50	=50	=50	=50	=50	=50	=50	=50	=50	=50	=50	=50	=50
!	!	!	!	!LO:N:vis=4.	!	!LO:TX:a:t=P:problem:mixed beam	!	!	!	!	!	!	!
2.E\]	.	4G#X/)	.	4B/)	.	8e/L	.	2.e\]	.	2.e\_	.	4gg#X\)	.
.	.	.	.	.	.	8ee\	.	.	.	.	.	.	.
.	.	8r	.	8r	.	8ee\J	.	.	.	.	.	8r	.
.	.	4.A/	.	(4.c/	.	(8ee\L	.	.	.	.	.	(4.aa\	.
.	.	.	.	.	.	8cc\	.	.	.	.	.	.	.
.	.	.	.	.	.	8a\J)	.	.	.	.	.	.	.
!	!	!	!	!	!	!LO:LB:g=original	!	!	!	!	!	!	!
=51	=51	=51	=51	=51	=51	=51	=51	=51	=51	=51	=51	=51	=51
!	!	!	!	!	!	!	!	!	!	!	!	!LO:SIC:v:s=4gg#	!
4E\	.	4G#X/	.	4B/)	.	4e/	.	4e\	.	4e\]	.	4gg\)	.
8r	.	8r	.	8r	.	8r	.	8r	.	8r	.	8r	.
4E\	.	4G#/	.	4B/	.	4e/	.	4r	.	4r	.	4r	.
8r	.	8r	.	8r	.	8r	.	8r	.	8r	.	8r	.
!	!	!LO:LB:g=original	!	!	!	!	!	!	!	!	!	!LO:LB:g=original	!
=	=	=	=	=	=	=	=	=	=	=	=	=	=
!	!	!LO:SIC:v:s=4G#	!	!	!	!	!	!	!	!	!	!	!
4E\	.	4G/	.	4B/	.	4e/	.	4r	.	4r	.	4r	.
4r	.	8r	.	8r	.	8r	.	8r	.	8r	.	8r	.
.	.	4r;	.	4r;	.	4r;	.	4r;	.	4r;	.	4r;	.
8r;	.	.	.	.	.	.	.	.	.	.	.	.	.
=52||	=52||	=52||	=52||	=52-	=52	=52-	=52	=52-	=52	=52-	=52	=52-	=52
*k[f#g#c#]	*	*k[f#g#c#]	*	*	*	*	*	*	*	*	*	*k[]	*
*A:	*	*A:	*	*	*	*	*	*	*	*	*	*	*
!	!	!	!	!	!	!	!	!	!	!	!	!LO:TX:a:t=P:problem:brak oznaczenia zmiany tonacji	!
!	!	!	!	!	!	!LO:TX:a:t=P:problem:podwójna kreska	!	!	!	!	!	!LO:TX:b:t=dol	!
8r	p	8r	.	8r	.	8e/	.	8r	.	8r	.	8ee\	.
=53	=53	=53	=53	=53	=53	=53	=53	=53	=53	=53	=53	=53	=53
*	*	*	*	*k[f#c#g#]	*	*k[f#c#g#]	*	*	*	*	*	*	*
*	*	*	*	*A:	*	*A:	*	*	*	*	*	*	*
!	!	!	!	!	!LO:DY:a	!	!	!LO:TX:a:t=15.	!	!LO:TX:a:t=16	!	!LO:SIC:v:s=4ccc#	!
!	!	!	!	!	!	!	!	!LO:N:vis=00	!	!LO:N:vis=00	!	!	!
4A\	.	4A/	p	8c#'/L	p	4cc#\	.	0.r	.	0.r	.	4ccc\	.
.	.	.	.	8e'/	.	.	.	.	.	.	.	.	.
!	!	!	!	!	!	!	!	!	!	!	!	!LO:SIC:v:s=8ccc#	!
8r	.	8r	.	8e'/J	.	8cc#\	.	.	.	.	.	8ccc\	.
!	!	!	!	!	!	!	!	!	!	!	!	!LO:SIC:v:s=8ccc#	!
4E\	.	4G#/	.	8B/L	.	(8cc#\L	.	.	.	.	.	(8ccc\L	.
.	.	.	.	8e/	.	8dd\	.	.	.	.	.	8ddd\	.
8r	.	8r	.	8e/J	.	8b\J)	.	.	.	.	.	8bb\J)	.
!LO:LB:g=original	!	!	!	!	!	!	!	!	!	!	!	!	!
=54	=54	=54	=54	=54	=54	=54	=54	=54	=54	=54	=54	=54	=54
4AA/	.	4A/	.	8c#/L	.	(4.b/	.	.	.	.	.	(4.bb\	.
.	.	.	.	8e/	.	.	.	.	.	.	.	.	.
8r	.	8r	.	8e/J	.	.	.	.	.	.	.	.	.
4A\	.	4A/	.	8c#/L	.	8a/)	.	.	.	.	.	8aa\)	.
.	.	.	.	8e/	.	8r	.	.	.	.	.	8r	.
8r	.	8r	.	8e/J	.	8a/	.	.	.	.	.	8aa\	.
!	!	!	!	!LO:LB:g=original	!	!	!	!	!	!	!	!	!
=55	=55	=55	=55	=55	=55	=55	=55	=55	=55	=55	=55	=55	=55
4E\	.	4G#/	.	8B/L	.	4b\	.	.	.	.	.	4bb\	.
.	.	.	.	8e/	.	.	.	.	.	.	.	.	.
8r	.	8G#/	.	8e/J	.	8b\	.	.	.	.	.	8bb\	.
4E\	.	8G#/L	.	(8B/L	.	(8b\L	.	.	.	.	.	(8bb\L	.
!	!	!	!	!	!	!	!	!	!	!	!	!LO:SIC:v:s=8ccc#	!
.	.	8A/	.	8c#/	.	8cc#\	.	.	.	.	.	8ccc\	.
8r	.	8B/J	.	8d/J)	.	8dd\J)	.	.	.	.	.	8ddd\J)	.
=56	=56	=56	=56	=56	=56	=56	=56	=56	=56	=56	=56	=56	=56
4A\	.	(4.B/	.	8d/L	.	(4.dd\	.	.	.	.	.	4.ddd\	.
.	.	.	.	8e/	.	.	.	.	.	.	.	.	.
8r	.	.	.	8e/J	.	.	.	.	.	.	.	.	.
!	!	!	!	!	!	!	!	!	!	!	!	!LO:SIC:v:s=8ccc#	!
4AA/	.	8A/)	.	8c#/L	.	8cc#\)	.	.	.	.	.	8ccc\	.
.	.	8r	.	8e/	.	8r	.	.	.	.	.	8r	.
8r	.	8r	.	8e/J	.	8ee\	.	.	.	.	.	8eee\	.
=57	=57	=57	=57	=57	=57	=57	=57	=57	=57	=57	=57	=57	=57
!	!	!	!	!	!	!	!	!LO:N:vis=00	!	!LO:N:vis=00	!	!LO:SIC:v:s=8ccc#	!
4A\	.	4A/	.	8c#/L	.	8cc#'\	.	0.r	.	0.r	.	8ccc\	.
.	.	.	.	8e/	.	8r	.	.	.	.	.	8r	.
8r	.	8r	.	8e/J	.	8ee'\	.	.	.	.	.	8eee\	.
4E\	.	4G#/	.	8B/L	.	8b'\	.	.	.	.	.	8bb\	.
.	.	.	.	8e/	.	8r	.	.	.	.	.	8r	.
8r	.	8r	.	8e/J	.	8ee'\	.	.	.	.	.	8eee\	.
!	!	!LO:LB:g=original	!	!	!	!	!	!	!	!	!	!	!
=58	=58	=58	=58	=58	=58	=58	=58	=58	=58	=58	=58	=58	=58
!	!LO:DY:t=rf.	!	!LO:DY:t=rf.	!	!LO:DY:rj:t=rf.	!	!	!	!	!	!	!	!
(>4.BB/	rf	(4.d#X\	rf	8f#/L	rf	(4a/	.	.	.	.	.	(4.aa\	.
.	.	.	.	8a/	.	.	.	.	.	.	.	.	.
!	!	!	!	!	!	!	!LO:DY:t=rf&colon;	!	!	!	!	!	!
.	.	.	.	8a/J	.	8aa\)	rf	.	.	.	.	.	.
(4.C#/)	.	4.e\)	.	8e/L	.	4gg#\	.	.	.	.	.	4gg#X\)	.
.	.	.	.	8g#/	.	.	.	.	.	.	.	.	.
.	.	.	.	8g#/J	.	8gg#\	.	.	.	.	.	8r	.
!	!	!	!	!	!	!LO:LB:g=original	!	!	!	!	!	!	!
=59	=59	=59	=59	=59	=59	=59	=59	=59	=59	=59	=59	=59	=59
!	!	!	!	!	!	!	!	!	!	!	!	!LO:SIC:v:s=4.ccc#	!
.	.	.	.	.	.	8qqgg#/	.	.	.	.	.	.	.
4.AA/	.	4.c#/	.	8c#/L	.	4ff#\	.	.	.	.	.	(4.ccc\	.
.	.	.	.	8f#/	.	.	.	.	.	.	.	.	.
.	.	.	.	8f#/J	.	8ff#\	.	.	.	.	.	.	.
.	.	.	.	.	.	16qqee/	.	.	.	.	.	.	.
4.BB/)	.	4.A/	.	8B/L	.	(8dd#X\L	.	.	.	.	.	4.ddd#X\)	.
.	.	.	.	8f#/	.	8cc#\	.	.	.	.	.	.	.
.	.	.	.	8f#/J	.	8dd#\J)	.	.	.	.	.	.	.
=60	=60	=60	=60	=60	=60	=60	=60	=60	=60	=60	=60	=60	=60
!LO:TX:a:t=P:problem:mixed beam	!	!	!	!	!	!	!	!	!	!	!	!LO:SIC:v:s=4.ddd#	!
8EE/L	.	4.A/	.	(4.d#X/	.	(4.ff#\	.	.	.	.	.	(4.ddd\	.
8E\	.	.	.	.	.	.	.	.	.	.	.	.	.
8E\J	.	.	.	.	.	.	.	.	.	.	.	.	.
4E\	.	4G#/	.	4e/)	.	8ee\)	.	.	.	.	.	4eee\)	.
.	.	.	.	.	.	8r	.	.	.	.	.	.	.
8r	.	8c#/	.	8e/	.	8ee\	.	.	.	.	.	8r	.
=61	=61	=61	=61	=61	=61	=61	=61	=61	=61	=61	=61	=61	=61
!LO:TX:a:t=1	!	!	!	!	!	!	!	!LO:N:vis=00	!	!LO:N:vis=00	!	!	!
2.r	.	(8c#/L	.	(8e/L	.	(8ee\L	.	0.r	.	0.r	.	4r	.
.	.	8A/	.	8c#/	.	8cc#\)	.	.	.	.	.	.	.
!	!	!	!	!	!	!LO:TX:a:t=|:problem	!	!	!	!	!	!	!
.	.	8B/J)	.	8d/J)	.	8dd\J	.	.	.	.	.	8r	.
.	.	(8c#/L	.	(8e/L	.	(8ee\L	.	.	.	.	.	4r	.
.	.	8A/	.	8c#/	.	8cc#\)	.	.	.	.	.	.	.
!	!	!	!	!	!	!LO:TX:a:t=|:problem	!	!	!	!	!	!	!
.	.	8c#/J)	.	8d/J)	.	8aa\J	.	.	.	.	.	8eee\	.
=62	=62	=62	=62	=62	=62	=62	=62	=62	=62	=62	=62	=62	=62
!LO:TX:a:t=P:problem:mixed beam	!	!	!	!	!	!	!	!	!	!	!	!	!
8EE/L	.	4.c#/	.	(4.e/	.	(4.ee\	.	.	.	.	.	(4.eee\	.
8E\	.	.	.	.	.	.	.	.	.	.	.	.	.
8E\J	.	.	.	.	.	.	.	.	.	.	.	.	.
4E\	.	8B/	.	8d/)	.	8dd\)	.	.	.	.	.	4dddn\)	.
.	.	8r	.	8r	.	8r	.	.	.	.	.	.	.
8r	.	8B/	.	8d/	.	8dd\	.	.	.	.	.	8r	.
!LO:LB:g=original	!	!	!	!	!	!	!	!	!	!	!	!	!
=63	=63	=63	=63	=63	=63	=63	=63	=63	=63	=63	=63	=63	=63
!LO:TX:a:t=1	!	!	!	!	!	!	!	!	!	!	!	!	!
2.r	.	(8B/L	.	(8d/L	.	(8dd\L	.	.	.	.	.	4r	.
.	.	8G#/	.	8B/	.	8b\	.	.	.	.	.	.	.
.	.	8A/J)	.	8c#/J)	.	8cc#\J)	.	.	.	.	.	8r	.
!	!	!	!	!LO:LB:g=original	!	!	!	!	!	!	!	!	!
.	.	(8B/L	.	(8d/L	.	8dd\L	.	.	.	.	.	4r	.
.	.	8G#/	.	8B/	.	8bb\J	.	.	.	.	.	.	.
.	.	8B/J)	.	8d/J)	.	(16gg#\LL	.	.	.	.	.	8ddd\	.
.	.	.	.	.	.	16ee\JJ)	.	.	.	.	.	.	.
!	!	!LO:LB:g=original	!	!	!	!	!	!	!	!	!	!	!
=64	=64	=64	=64	=64	=64	=64	=64	=64	=64	=64	=64	=64	=64
!LO:TX:a:t=P:problem:mixed beam	!	!	!	!	!	!	!	!	!	!	!	!	!
8AA/L	.	(4.B/	.	(4.d/	.	(4.dd\	.	.	.	.	.	4.ddd\	.
8A\	.	.	.	.	.	.	.	.	.	.	.	.	.
8A\J	.	.	.	.	.	.	.	.	.	.	.	.	.
!	!	!	!	!	!	!	!	!	!	!	!	!LO:SIC:v:s=8ccc#	!
4A\	.	4A/)	.	4c#/)	.	8cc#\)	.	.	.	.	.	8ccc\	.
.	.	.	.	.	.	8r	.	.	.	.	.	8r	.
8r	.	8r	.	8r	.	8ee\	.	.	.	.	.	8eee\	.
!	!	!	!	!	!	!	!	!	!	!	!	!LO:LB:g=original	!
=65	=65	=65	=65	=65	=65	=65	=65	=65	=65	=65	=65	=65	=65
!	!	!	!	!	!	!	!	!LO:N:vis=0	!	!LO:N:vis=00	!	!LO:SIC:v:s=8ccc#	!
4A\	.	4A/	.	8c#/L	.	8cc#\	.	1.r	.	0.r	.	8ccc\	.
.	.	.	.	8e/	.	8r	.	.	.	.	.	8r	.
8r	.	8r	.	8e/J	.	8ee\	.	.	.	.	.	8eee\	.
!	!	!	!	!	!	!LO:TX:a:t=P:problem:kreska taktowa na nucie	!	!	!	!	!	!	!
4E\	.	4G#/	.	8B/L	.	8b\	.	.	.	.	.	8bb\	.
.	.	.	.	8e/	.	8r	.	.	.	.	.	8r	.
8r	.	8r	.	8e/J	.	8ee\	.	.	.	.	.	8eee\	.
=66	=66	=66	=66	=66	=66	=66	=66	=66	=66	=66	=66	=66	=66
!	!	!	!	!	!	!	!	!	!	!	!	!LO:SIC:v:s=8ccc#	!
4A\	.	4A/	.	8c#/L	.	8cc#\	.	.	.	.	.	8ccc\	.
.	.	.	.	8e/	.	8r	.	.	.	.	.	8r	.
8r	.	8r	.	8e/J	.	8ee\	.	.	.	.	.	8eee\	.
8E\	.	8G#/	.	8B/L	.	8b\	.	.	.	.	.	8bb\	.
8r	.	8r	.	8e/	.	8r	.	.	.	.	.	8r	.
!	!	!	!LO:DY:t=rf.	!	!	!	!	!	!	!	!	!	!
8C#/	rf	8A/	rf	8e/J	.	8aa\	.	.	.	.	.	8aa\	.
!	!	!	!	!	!	!LO:LB:g=original	!	!	!	!	!	!	!
=67	=67	=67	=67	=67	=67	=67	=67	=67	=67	=67	=67	=67	=67
!	!	!	!	!	!	!	!LO:DY:t=rf.	!	!	!	!	!	!
4D\	.	4A/	.	8A/L	.	(4ff#\	rf	2.r	.	.	.	4aa\	.
!	!	!	!	!	!LO:DY:a:t=rf.	!	!	!	!	!	!	!	!
.	.	.	.	8f#/	rf	.	.	.	.	.	.	.	.
!	!	!	!	!	!	!LO:TX:a:i:t=.	!	!	!	!	!	!	!
8D\	.	8B/	.	8d/J	.	8dd\)	.	.	.	.	.	8ddd\	.
!	!	!	!	!	!	!	!	!	!	!	!	!LO:SIC:v:s=8.ccc#	!
4E\	.	8.A/L	.	8.c#/L	.	8.cc#\L	.	.	.	.	.	8.ccc\L	.
.	.	16B/K	.	16d/K	.	16dd\K	.	.	.	.	.	16ddd\K	.
8EE/	.	8G#/J	.	8B/J	.	8b\J	.	.	.	.	.	8bb\J	.
=	=	=	=	=	=	=	=	=	=	=	=	=	=
!LO:TX:a:t=P:problem:mixed beam	!	!	!	!	!	!	!	!	!	!	!	!	!
8AA/L	.	4.G#/	.	(4.e 4.B/	.	(4.b/	.	4r	.	.	.	(4.bb\	.
8A\	.	.	.	.	.	.	.	.	.	.	.	.	.
8A\J	.	.	.	.	.	.	.	8r	.	.	.	.	.
4ryy	.	8A/	.	8e 8c#/)	.	8a/)	.	4r	.	.	.	4aa\)	.
!	!	!	!	!	!	!LO:N:vis=4	!	!	!	!	!	!	!
.	.	8r	.	8r	.	8r	.	.	.	.	.	.	.
!	!	!LO:LB:g=original	!	!	!	!	!	!	!	!	!	!	!
=68!|:	=68!|:	=68!|:	=68!|:	=68!|:	=68!|:	=68!|:	=68!|:	=68!|:	=68!|:	=68!|:	=68!|:	=68!|:	=68!|:
*>D	*	*>D	*	*>D	*	*>D	*	*>D	*	*>D	*	*>D	*
*k[f#c#gn]	*	*k[gnf#c#]	*	*k[f#c#gn]	*	*k[f#c#gn]	*	*	*	*	*	*k[f#c#gn]	*
*D:	*	*D:	*	*D:	*	*D:	*	*	*	*	*	*D:	*
!LO:TX:a:t=P:problem:kasownik gn	!	!LO:TX:a:t=P:problem:kasownik gn	!	!LO:TX:a:t=P:problem:kasownik gn	!	!LO:TX:a:t=P:problem:kasownik gn	!	!LO:TX:a:i:t=Solo	!	!	!	!LO:TX:a:t=P:problem:kasownik gn	!
!	!	!	!	!	!	!	!	!	!	!	!	!LO:TX:a:t=P:problem:brak znaku repetycji	!
8r	.	8r	.	8r	.	8ryy	.	8r	.	.	.	8a/	.
=69	=69	=69	=69	=69	=69	=69	=69	=69	=69	=69	=69	=69	=69
!	!	!	!LO:DY:a	!	!	!	!	!	!	!LO:TX:a:i:t=Solo	!	!	!LO:DY:a:t=pf.
[2.D/	rf	8r	p	8r	p	8r	.	4.F#/	.	4.d\	.	4.dd\	.
!	!	!	!LO:DY:a	!	!LO:DY:t=f.	!	!LO:DY:t=p.	!	!	!	!	!	!
.	.	8D/L	f	8dL 8A/	f	8aL 8f#/	p	.	.	.	.	.	.
!	!	!	!	!	!	!	!LO:DY:t=f.	!	!	!	!	!	!
.	.	8D/J	.	8dJ 8A/	.	8aJ 8f#/	f	.	.	.	.	.	.
*	*	*	*	*tremolo	*	*tremolo	*	*	*	*	*	*	*
.	.	8D/L	.	8d 8A/L	.	8a 8f#/L	.	4.d\	.	4.f#\	.	4.ff#\	.
.	.	8D/	.	8d 8A/	.	8a 8f#/	.	.	.	.	.	.	.
.	.	8D/J	.	8d 8A/J	.	8a 8f#/J	.	.	.	.	.	.	.
*	*	*	*	*Xtremolo	*	*Xtremolo	*	*	*	*	*	*	*
=70	=70	=70	=70	=70	=70	=70	=70	=70	=70	=70	=70	=70	=70
2.D/]	.	8r	.	8r	.	8r	.	[4.f#\	.	4.a\	.	[4.aa\	.
.	.	8D/L	.	8dL 8A/	.	8aL 8f#/	.	.	.	.	.	.	.
.	.	8D/J	.	8dJ 8A/	.	8aJ 8f#/	.	.	.	.	.	.	.
*	*	*	*	*tremolo	*	*tremolo	*	*	*	*	*	*	*
.	.	8D/L	.	8d 8A/L	.	8a 8f#/L	.	8f#\L]	.	8a\L	.	8aa\L]	.
.	.	8D/	.	8d 8A/	.	8a 8f#/	.	8e\	.	8g\	.	8ggn\	.
.	.	8D/J	.	8d 8A/J	.	8a 8f#/J	.	8d\J	.	8f#\J	.	8ff#\J	.
*	*	*	*	*Xtremolo	*	*Xtremolo	*	*	*	*	*	*	*
!LO:LB:g=original	!	!	!	!	!	!	!	!	!	!	!	!	!
=71	=71	=71	=71	=71	=71	=71	=71	=71	=71	=71	=71	=71	=71
*	*	*	*	*	*	*^	*	*	*	*	*	*	*
*	*	*	*	*	*	*	*	*	*tremolo	*	*	*	*	*
2.AA/	.	8r	.	8r	.	8r	8ryy	.	8A/L	.	8e\L	.	4.ee\	.
.	.	8A/L	.	8eL 8A/	.	8a/L	8g\L	.	8A/	.	8e\	.	.	.
.	.	8A/J	.	8eJ 8A/	.	8a/J	8g\J	.	8A/J	.	8e\J	.	.	.
*	*	*	*	*	*	*	*	*	*Xtremolo	*	*	*	*	*
.	.	8A/L	.	(8e/L	.	4.a/	8g\L	.	8A/L	.	8e\L	.	(8ee\L	.
.	.	8A/	.	8d/	.	.	8f#\	.	8d/	.	8f#\	.	8ff#\	.
.	.	8A/J	.	8c#/J)	.	.	8e\J	.	8e/J	.	8g\J	.	8gg\J)	.
*	*	*	*	*	*	*v	*v	*	*	*	*	*	*	*
!	!	!	!	!LO:LB:g=original	!	!	!	!	!	!LO:LB:g=original	!	!	!
=72	=72	=72	=72	=72	=72	=72	=72	=72	=72	=72	=72	=72	=72
4.D/	.	8r	.	8r	.	8r	.	4e\	.	4g\	.	4gg\	.
.	.	8A/L	.	8d/L	.	8f#L 8A/	.	.	.	.	.	.	.
.	.	8A/J	.	8d/J	.	8f#J 8A/	.	8d\	.	8f#\	.	8ff#\	.
4AA/	.	8r	.	8r	.	8r	.	4A/	.	4e\	.	4ee\	.
.	.	8A/L	.	8c#/L	.	8eL 8A/	.	.	.	.	.	.	.
8r	.	8A/J	.	8c#/J	.	8eJ 8A/	.	8r	.	8r	.	8r	.
!	!	!LO:LB:g=original	!	!	!	!	!	!	!	!	!	!	!
=73	=73	=73	=73	=73	=73	=73	=73	=73	=73	=73	=73	=73	=73
4D/	.	8r	.	8r	.	8r	.	2.d\	.	4.f#\	.	4.ff#\	.
.	.	8A/L	.	8d/L	.	8f#L 8A/	.	.	.	.	.	.	.
8r	.	8A/J	.	8d/J	.	8f#J 8A/	.	.	.	.	.	.	.
4BB/	.	8r	.	8r	.	8r	.	.	.	4.e\	.	4.gg#X\	.
.	.	8e\L	.	8d/L	.	8g#X/L	.	.	.	.	.	.	.
8r	.	8e\J	.	8d/J	.	8g#/J	.	.	.	.	.	.	.
!	!	!	!	!	!	!LO:LB:g=original	!	!	!	!	!	!	!
=74	=74	=74	=74	=74	=74	=74	=74	=74	=74	=74	=74	=74	=74
4AA/	.	8r	.	8r	.	8r	.	4.A/	p	4.e\	p	4.aa\	.
.	.	8e\L	.	8c#/L	.	8a/L	.	.	.	.	.	.	.
8r	p	8e\J	.	8c#/J	.	8a/J	p	.	.	.	.	.	.
!	!	!LO:TX:a:t=P:problem:druga połowa taktu nieczytelna	!	!	!	!	!	!	!	!	!	!	!
4D\	.	4.ryy	p	(8c#/L	p	8a/L	.	4.d\	.	4.f#\	.	8aa\L	.
!	!	!	!	!	!	!	!	!	!	!	!	!LO:SIC:v:s=8gg#	!
.	.	.	.	8e/	.	8g#X/	.	.	.	.	.	8gg\	.
8r	.	.	.	8d/J)	.	8f#/J	.	.	.	.	.	8ff#\J	.
!	!	!	!	!	!	!	!	!LO:LB:g=original	!	!	!	!LO:LB:g=original	!
=75	=75	=75	=75	=75	=75	=75	=75	=75	=75	=75	=75	=75	=75
(4.E\	.	8r	.	(8c#/L	.	8e/L	.	4e\	.	4e\	.	4ee\	.
.	.	8E/L	.	8d/	.	8f#/	.	.	.	.	.	.	.
.	.	8E/J	.	8c#/J)	.	8e/J	.	8e\	.	8e\	.	8ccc#\	.
.	.	.	.	8qqc#/	.	8qqe/	.	.	.	.	.	8qqccc#/	.
4.EE/)	.	(8G#X/L	.	8B/L	.	8d/L	.	4e\	.	4e\	.	8bb\L	.
.	.	8A/	.	8A/	.	8c#/	.	.	.	.	.	8aa\	.
.	.	8B/J)	.	8G#X/J	.	8B/J	.	8e\	.	8e\	.	8gg#X\J	.
=	=	=	=	=	=	=	=	=	=	=	=	=	=
!LO:TX:a:t=P:problem:mixed beam	!	!	!	!LO:SIC:v:s=4.G#	!	!	!	!	!	!	!	!LO:SIC:v:4.gg#	!
8AA/L	.	(4.B/	.	(4.G/	.	(4.d/	.	4.A/	.	[4.e\	.	(4.gg\	.
8A\	.	.	.	.	.	.	.	.	.	.	.	.	.
8A\J	.	.	.	.	.	.	.	.	.	.	.	.	.
4A\	.	4A/)	.	4A/)	.	8c#/)	.	4A/	.	8e\]	.	4aa\)	.
.	.	.	.	.	.	8r	.	.	.	8r	.	.	.
!	!	!LO:LB:g=original	!	!	!	!	!	!	!	!	!	!	!
=76:|!|:	=76:|!|:	=76:|!|:	=76:|!|:	=76:|!|:	=76:|!|:	=76:|!|:	=76:|!|:	=76:|!|:	=76:|!|:	=76:|!|:	=76:|!|:	=76:|!	=76:|!
*>E	*	*>E	*	*>E	*	*>E	*	*>E	*	*>E	*	*>E	*
!	!	!	!	!	!	!	!	!	!	!	!	!LO:TX:a:t=P:problem:brak znaku repetycji	!
8r	.	8r	.	8r	.	8r	.	8r	.	8r	.	8r	.
=77	=77	=77	=77	=77	=77	=77	=77	=77	=77	=77	=77	=77	=77
!	!LO:DY:rj	!	!	!	!	!	!	!	!	!	!	!	!
4AA/	p	[2.A/	p	8r	p	8r	.	4r	.	4r	.	4r	.
!	!	!	!	!	!	!	!LO:DY:a	!	!	!	!	!	!
.	.	.	.	8c#/L	.	8eL 8A/	p	.	.	.	.	.	.
8r	.	.	.	8c#/J	.	8eJ 8A/	.	8r	.	8r	.	8r	.
4r	.	.	.	(8c#/L	.	(8eL 8A/	.	4r	.	4r	p	4r	.
.	.	.	.	8d/	.	8f#/	.	.	.	.	.	.	.
8r	.	.	.	8e/J)	.	8g/J)	.	8A/	p	8e\	.	8aa\	.
=78	=78	=78	=78	=78	=78	=78	=78	=78	=78	=78	=78	=78	=78
4D/	.	2.A/]	.	8r	.	8r	.	4d\	.	4f#\	.	4ddd\	.
.	.	.	.	8d/L	.	8f#L 8A/	.	.	.	.	.	.	.
8r	.	.	.	8d/J	.	8f#J 8A/	.	8f#\	.	8a\	.	8aa\	.
.	.	.	.	.	.	.	.	.	.	.	.	8qqbb/	.
4r	.	.	.	(8d/L	.	8f#L 8A/	.	8f#\L	.	8a\L	.	8aa\L	.
.	.	.	.	8e'/	.	(8g/	.	8e\	.	8g\	.	8gg\	.
8r	.	.	.	8f#/J)	.	8a/J)	.	8d\J	.	8f#\J	.	8ff#\J	.
!LO:LB:g=original	!	!	!	!	!	!	!	!	!	!	!	!	!
=79	=79	=79	=79	=79	=79	=79	=79	=79	=79	=79	=79	=79	=79
2.AA/	.	2.A/	.	8r	.	8r	.	4A/	.	4e\	.	4ee\	.
.	.	.	.	8c#/L	.	8eL 8A/	.	.	.	.	.	.	.
.	.	.	.	8c#/J	.	8eJ 8A/	.	8r	.	8r	.	8r	.
.	.	.	.	(8c#/L	.	8eL 8A/	.	4r	.	4r	.	4r	.
.	.	.	.	8d/	.	(8f#/	.	.	.	.	.	.	.
.	.	.	.	8e/J)	.	8g/J)	.	8A/	.	8e\	.	8aa\	.
!	!	!	!	!LO:LB:g=original	!	!	!	!	!	!LO:PB:g=original	!	!	!
=80	=80	=80	=80	=80	=80	=80	=80	=80	=80	=80	=80	=80	=80
2.D\	.	2.A/	.	8r	.	8r	.	4d\	.	4f#\	.	4ddd\	.
.	.	.	.	8d/L	.	8f#L 8A/	.	.	.	.	.	.	.
.	.	.	.	8d/J	.	8f#J 8A/	.	8f#\	.	8a\	.	8aa\	.
.	.	.	.	.	.	.	.	.	.	.	.	16qqbb/	.
.	.	.	.	(8d/L	.	8f#L 8A/	.	8f#\L	.	8a\L	.	8aa\L	.
.	.	.	.	8e/	.	(8g/	.	8e\	.	8g\	.	8gg\	.
!	!	!	!	!	!	!	!	!	!LO:DY:a:t=f.	!	!	!	!
.	.	.	.	8f#/J)	.	8a/J)	.	8d\J	f	8f#\J	.	8ff#\J	.
!	!	!	!	!	!	!LO:LB:g=original	!	!	!	!	!	!	!
=81	=81	=81	=81	=81	=81	=81	=81	=81	=81	=81	=81	=81	=81
.	.	.	.	.	.	.	.	.	.	.	.	16qqdd/	.
!	!LO:DY:rj:t=f.	!	!	!	!LO:DY:a:t=f.	!	!	!	!	!	!LO:DY:rj	!	!
4D\	f	8r	f	8r	f	8r	f	[>2.D/	.	[2.d\	f	4.ddd\	.
.	.	8D/L	.	8f#/L	.	8a/L	.	.	.	.	.	.	.
8r	.	8D/J	.	8f#/J	.	8a/J	.	.	.	.	.	.	.
4D\	.	8r	.	8r	.	8r	.	.	.	.	.	4.bb\	.
.	.	8D/L	.	8g/L	.	8b/L	.	.	.	.	.	.	.
8r	.	8D/J	.	8g/J	.	8b/J	.	.	.	.	.	.	.
=82	=82	=82	=82	=82	=82	=82	=82	=82	=82	=82	=82	=82	=82
2.D\	.	8r	.	8r	.	8r	.	4D/]	.	4d\]	.	4.aa\	.
.	.	8D/L	.	8f#/L	.	8a/L	.	.	.	.	.	.	.
.	.	8D/J	.	8f#/J	.	8a/J	.	8r	.	8r	.	.	.
*	*	*	*	*tremolo	*	*tremolo	*	*tremolo	*	*	*	*	*
.	.	8D/L	.	8f#/L	.	8a/L	.	8f#\L	.	8a\L	.	8dd\L	.
.	.	8D/	.	8f#/	.	8a/	.	8f#\	.	8a\	.	8ff#\	.
.	.	8D/J	.	8f#/J	.	8a/J	.	8f#\J	.	8a\J	.	8aa\J	.
*	*	*	*	*Xtremolo	*	*Xtremolo	*	*Xtremolo	*	*	*	*	*
=83	=83	=83	=83	=83	=83	=83	=83	=83	=83	=83	=83	=83	=83
4.A\	.	2.A/	.	8f#/L	.	8a/L	.	8f#\L	.	8a\L	.	8aa\L	.
.	.	.	.	8g/	.	8b/	.	8g\	.	8b\	.	8ddd\	.
.	.	.	.	8f#/J	.	8a/J	.	8f#\J	.	8a\J	.	8aa\J	.
.	.	.	.	8qqf#/	.	8qqa/	.	.	.	.	.	16qqaa/	.
4.AA/	.	.	.	8e/L	.	8g/L	.	8e\L	.	8g\L	.	8gg\L	.
.	.	.	.	8d/	.	8f#/	.	8d\	.	8f#\	.	8ff#\	.
.	.	.	.	8c#/J	.	8e/J	.	8A\J	.	8e\J	.	8ee\J	.
!	!	!LO:LB:g=original	!	!	!	!	!	!	!	!	!	!	!
=	=	=	=	=	=	=	=	=	=	=	=	=	=
4.D\	.	4.A/	.	(4.e/	.	4.g/	.	4.A/	.	4.e\	.	4.ee\	.
!	!	!	!	!	!	!	!	!	!	!	!	!LO:TX:a:t=P:problem:brak znaku repetycji	!
8D\	.	4A/	.	8d/)	.	4f#/	.	8F#/	.	8d\	.	4dd\	.
8r	.	.	.	8r	.	.	.	8r	.	8r	.	.	.
=84:|!	=84:|!	=84:|!	=84:|!	=84:|!	=84:|!	=84:|!	=84:|!	=84:|!	=84:|!	=84:|!	=84:|!	=84:|!	=84:|!
*>F	*	*>F	*	*>F	*	*>F	*	*>F	*	*>F	*	*>F	*
*	*	*	*	*	*	*	*	*	*	*	*	*k[f#c#g#]	*
!	!	!	!	!	!	!	!LO:DY:t=pp.	!	!	!	!	!	!
8r	.	8r	.	8r	.	8a/	pp	8r	.	8r	.	8r	.
=85	=85	=85	=85	=85	=85	=85	=85	=85	=85	=85	=85	=85	=85
!LO:TX:a:t=6	!	!LO:TX:a:t=1	!	!LO:TX:a:t=1	!	!	!	!LO:TX:a:t=10	!	!LO:TX:a:t=10	!	!LO:TX:a:t=10	!
!LO:N:vis=00	!	!	!	!	!	!	!	!LO:N:vis=00	!	!LO:N:vis=00	!	!LO:N:vis=00	!
0.r	.	2.r	.	2.r	.	(4.dd\	.	0.r	.	0.r	.	0.r	.
.	.	.	.	.	.	4.ff#\)	.	.	.	.	.	.	.
=86	=86	=86	=86	=86	=86	=86	=86	=86	=86	=86	=86	=86	=86
.	.	4r	.	4r	.	4.aa\	.	.	.	.	.	.	.
.	.	8r	.	8r	.	.	.	.	.	.	.	.	.
.	.	8r	.	4r	p	(8aa\L	.	.	.	.	.	.	.
.	.	8r	.	.	.	8gg\	.	.	.	.	.	.	.
.	.	8A/	pp	8A/	.	8ff#\J)	.	.	.	.	.	.	.
=87	=87	=87	=87	=87	=87	=87	=87	=87	=87	=87	=87	=87	=87
!	!	!LO:N:vis=4	!	!	!	!	!	!	!	!	!	!	!
.	.	(4.c#X\	.	4.e/	.	4ee\	.	.	.	.	.	.	.
.	.	.	.	.	.	8r	.	.	.	.	.	.	.
!	!	!LO:N:vis=4	!	!	!	!	!	!	!	!	!	!	!
.	.	4.e\)	.	4.g/	.	4r	.	.	.	.	.	.	.
.	.	.	.	.	.	8r	.	.	.	.	.	.	.
=88	=88	=88	=88	=88	=88	=88	=88	=88	=88	=88	=88	=88	=88
!	!	!	!	!	!	!LO:TX:a:t=1	!	!	!	!	!	!	!
.	.	4.g\	.	[4.b/	.	2.r	.	.	.	.	.	.	.
.	.	(8g\L	.	8b/L]	.	.	.	.	.	.	.	.	.
.	.	8f#\	.	8a/	.	.	.	.	.	.	.	.	.
.	.	8e\J)	.	8g/J	.	.	.	.	.	.	.	.	.
=89	=89	=89	=89	=89	=89	=89	=89	=89	=89	=89	=89	=89	=89
!LO:N:vis=0	!	!	!	!	!	!	!	!LO:N:vis=00	!	!LO:N:vis=00	!	!LO:N:vis=00	!
1.r	.	4d\	.	4f#/	.	(4.ff#\	.	0.r	.	0.r	.	0.r	.
!	!	!LO:N:vis=4	!	!	!	!	!	!	!	!	!	!	!
.	.	8e\	.	8r	.	.	.	.	.	.	.	.	.
.	.	4r	.	4r	.	4.aa\)	.	.	.	.	.	.	.
.	.	8r	.	8r	.	.	.	.	.	.	.	.	.
=90	=90	=90	=90	=90	=90	=90	=90	=90	=90	=90	=90	=90	=90
!	!	!LO:TX:a:t=1	!	!LO:TX:a:t=3	!	!	!	!	!	!	!	!	!
!	!	!	!	!LO:N:vis=0	!	!	!	!	!	!	!	!	!
.	.	2.r	.	1.r	.	4.ddd\	.	.	.	.	.	.	.
.	.	.	.	.	.	(8ddd\L	.	.	.	.	.	.	.
.	.	.	.	.	.	8bb\	.	.	.	.	.	.	.
.	.	.	.	.	.	8aa\J)	.	.	.	.	.	.	.
!	!	!LO:LB:g=original	!	!	!	!	!	!	!	!	!	!	!
=91	=91	=91	=91	=91	=91	=91	=91	=91	=91	=91	=91	=91	=91
(<4.E\	.	4.B/	.	.	.	2.gg#X\	.	.	.	.	.	.	.
!LO:TX:a:t=h	!	!	!	!	!	!	!	!	!	!	!	!	!
4.B 4.G\)	.	4.d\	.	.	.	.	.	.	.	.	.	.	.
=92	=92	=92	=92	=92	=92	=92	=92	=92	=92	=92	=92	=92	=92
[4.d\	.	4.fn\	.	2.r	.	2.gg#X\	.	.	.	.	.	.	.
8d\L]	.	(8f\L	.	.	.	.	.	.	.	.	.	.	.
8c#\	.	8e\	.	.	.	.	.	.	.	.	.	.	.
8B\J	.	8d\J)	.	.	.	.	.	.	.	.	.	.	.
=93	=93	=93	=93	=93	=93	=93	=93	=93	=93	=93	=93	=93	=93
!	!	!	!	!	!	!	!	!LO:N:vis=0	!	!LO:N:vis=0	!	!LO:N:vis=0	!
2.A\	.	2.c#X\	.	(4.e/	.	2.aa\	.	1.r	.	1.r	.	1.r	.
.	.	.	.	4.a/)	.	.	.	.	.	.	.	.	.
!LO:LB:g=original	!	!	!	!LO:LB:g=original	!	!	!	!	!	!	!	!	!
=94	=94	=94	=94	=94	=94	=94	=94	=94	=94	=94	=94	=94	=94
2.Fn\	.	2.A/	.	[4.ccn\	.	2.dd#X\	.	.	.	.	.	.	.
.	.	.	.	8cc\L]	.	.	.	.	.	.	.	.	.
.	.	.	.	8b\	.	.	.	.	.	.	.	.	.
.	.	.	.	8a\J	.	.	.	.	.	.	.	.	.
!	!	!	!	!	!	!	!	!LO:LB:g=original	!	!	!	!LO:LB:g=original	!
=95	=95	=95	=95	=95	=95	=95	=95	=95	=95	=95	=95	=95	=95
[2.E\	.	4G#X/	.	8g#X/L	.	4ee\	.	2.e\	.	2.e\	.	4r	.
.	.	.	.	8e/	.	.	.	.	.	.	.	.	.
.	.	8r	.	8e/J	.	8r	.	.	.	.	.	8r	.
*	*	*	*	*tremolo	*	*	*	*	*	*	*	*	*
.	.	4G#/	.	8e/L	.	4r	.	.	.	.	.	4.gg#\	p
.	.	.	.	8e/	.	.	.	.	.	.	.	.	.
.	.	8r	.	8e/J	.	8r	.	.	.	.	.	.	.
!	!	!	!	!	!	!LO:LB:g=original	!	!	!	!	!	!	!
=96	=96	=96	=96	=96	=96	=96	=96	=96	=96	=96	=96	=96	=96
*	*	*	*	*	*	*tremolo	*	*	*	*	*	*	*
2.E\_	.	(4.A/	.	8e/L	.	8fn/L	.	2.e\	.	2.e\	.	(4.aa\	.
.	.	.	.	8e/	.	8fn/	.	.	.	.	.	.	.
.	.	.	.	8e/J	.	8fn/	.	.	.	.	.	.	.
.	.	4.B/)	.	8d/L	.	8fn/	.	.	.	.	.	4.bb\)	.
.	.	.	.	8d/	.	8fn/	.	.	.	.	.	.	.
.	.	.	.	8d/J	.	8fn/J	.	.	.	.	.	.	.
=97	=97	=97	=97	=97	=97	=97	=97	=97	=97	=97	=97	=97	=97
2.E\_	.	(4.G#X/	.	8d/L	.	8e/L	.	[2.e\	.	2.e\	.	4.gg#\	.
.	.	.	.	8d/	.	8e/	.	.	.	.	.	.	.
.	.	.	.	8d/J	.	8e/	.	.	.	.	.	.	.
.	.	4.A/)	.	8cn/L	.	8e/	.	.	.	.	.	4.aa\	.
.	.	.	.	8cn/	.	8e/	.	.	.	.	.	.	.
.	.	.	.	8cn/J	.	8e/J	.	.	.	.	.	.	.
=98	=98	=98	=98	=98	=98	=98	=98	=98	=98	=98	=98	=98	=98
2.E\]	.	(4.F#/	.	8cn/L	.	8d/L	.	4.e\]	.	4.e\	.	4.ff#\	.
.	.	.	.	8cn/	.	8d/	.	.	.	.	.	.	.
.	.	.	.	8cn/J	.	8d/	.	.	.	.	.	.	.
.	.	4.G#X/)	.	8B/L	.	8d/	.	4r	.	4r	.	4.gg#\	.
!	!LO:DY:t=f.	!	!	!	!	!	!	!	!	!	!	!	!
.	f	.	.	8B/	.	8d/	.	.	.	.	.	.	.
.	.	.	.	8B/J	.	8d/J	.	8r	.	8r	.	.	.
*	*	*	*	*Xtremolo	*	*Xtremolo	*	*	*	*	*	*	*
!	!	!LO:LB:g=original	!	!	!	!	!	!	!	!LO:LB:g=original	!	!	!
=99	=99	=99	=99	=99	=99	=99	=99	=99	=99	=99	=99	=99	=99
!	!	!	!	!	!	!	!	!LO:TX:a:t=2	!	!LO:TX:a:t=2	!	!	!
.	.	.	.	.	.	8qqd/	.	.	.	.	.	.	.
*tremolo	*	*	*	*	*	*	*	*	*	*	*	*	*
!	!	!	!	!	!LO:DY:rj	!LO:TX:a:t=P:problem:mixed beam	!	!LO:N:vis=0	!	!LO:N:vis=0	!	!	!LO:DY:t=f.
8Fn\L	.	8A\L	.	8A/L	f	8cn/L	.	1.r	.	1.r	.	2.aa\	f
!	!	!	!	!	!	!	!LO:DY:a:t=f.	!	!	!	!	!	!
8Fn\	.	8fn\	.	8a/	.	8ccny\	f	.	.	.	.	.	.
8Fn\	.	8f\J	.	8a/J	.	8cc\J	.	.	.	.	.	.	.
*	*	*tremolo	*	*tremolo	*	*tremolo	*	*	*	*	*	*	*
8Fn\	.	8f\L	.	8a/L	.	8cc\L	.	.	.	.	.	.	.
8Fn\	.	8f\	.	8a/	.	8cc\	.	.	.	.	.	.	.
8Fn\J	.	8f\J	.	8a/J	.	8cc\J	.	.	.	.	.	.	.
*	*	*	*	*Xtremolo	*	*Xtremolo	*	*	*	*	*	*	*
=100	=100	=100	=100	=100	=100	=100	=100	=100	=100	=100	=100	=100	=100
!	!	!	!	!	!	!LO:SIC:v:s=8ccn	!	!	!	!	!	!	!
8D#X\L	.	8f#X\L	.	8a\L	.	8cc#\L	.	.	.	.	.	2.cccn\	.
8D#\	.	8f#\	.	8ccn\	.	8aa\	.	.	.	.	.	.	.
8D#\	.	8f#\	.	8cc\J	.	8aa\J	.	.	.	.	.	.	.
*	*	*	*	*tremolo	*	*	*	*	*	*	*	*	*
8D#\	.	8f#\	.	8cc\L	.	4.aa\	.	.	.	.	.	.	.
8D#\	.	8f#\	.	8cc	.	.	.	.	.	.	.	.	.
8D#\J	.	8f#\J	.	8cc\J	.	.	.	.	.	.	.	.	.
*Xtremolo	*	*Xtremolo	*	*Xtremolo	*	*	*	*	*	*	*	*	*
=101	=101	=101	=101	=101	=101	=101	=101	=101	=101	=101	=101	=101	=101
*	*	*	*	*2\right	*	*	*	*	*	*	*	*	*
!	!	!	!	!	!LO:DY:rj	!	!	!	!LO:DY:rj	!	!LO:DY:rj	!	!
2.Dn\	p	[2.fn\	.	[2.b\	p	(2.gg#X\	.	2.d\	p	[2.d\	p	2.bb\	.
=	=	=	=	=	=	=	=	=	=	=	=	=	=
4D\	.	4f\]	.	4b\]	.	4ff#\)	.	4d\	.	4d\]	.	4bb\	.
8r	.	8r	.	4r	.	8r	.	8r	.	8r	.	8r	.
!	!	!LO:N:vis=4	!	!	!	!	!	!	!	!	!	!	!
4r	.	8r	.	.	.	4r;	.	4r;	.	4r;	.	4r;	.
!LO:TX:a:t=P:problem:pojedyncza kreska taktowa	!	!	!	!	!	!	!	!	!	!	!	!	!
.	.	8r;	.	8r;	.	.	.	.	.	.	.	.	.
=102||	=102||	=102||	=102||	=102||	=102||	=102||	=102||	=102-	=102	=102-	=102	=102||	=102||
*k[f#c#g#]	*	*k[f#g#c#]	*	*k[f#c#g#]	*	*k[f#c#g#]	*	*	*	*	*	*	*
*A:	*	*A:	*	*A:	*	*A:	*	*	*	*	*	*	*
!	!	!	!	!	!	!	!LO:DY:t=p.	!LO:TX:a:t=P:problem:podwójna kreska	!	!LO:TX:a:t=P:problem:podwójna kreska	!	!	!
8r	.	8r	.	8ryy	.	8e/	p	8r	.	8r	.	8ee\	.
=103	=103	=103	=103	=103	=103	=103	=103	=103	=103	=103	=103	=103	=103
!	!	!	!	!	!	!	!LO:DY:t=f.	!	!	!	!	!	!
4A\	rf	4A/	p	8c#/L	.	4cc#\	f	4A/	.	4e\	.	4ccc#\	.
.	.	.	.	8e/	f	.	.	.	.	.	.	.	.
8r	.	8r	.	8e/J	.	8cc#\	.	8r	.	8r	.	8ccc#\	.
4E\	.	4G#/	f	8B/L	.	(8cc#\L	.	4e\	.	4e\	.	8ccc#\L	.
.	.	.	.	8e/	.	8dd\	.	.	.	.	.	8ddd\	.
8r	.	8r	.	8e/J	.	8b\J)	.	8r	.	8r	.	8bb\J	.
=104	=104	=104	=104	=104	=104	=104	=104	=104	=104	=104	=104	=104	=104
4AA/	.	4A/	.	8c#/L	.	(4.b/	.	4.A/	.	4.e\	.	(4.bb\	.
.	.	.	.	8e/	.	.	.	.	.	.	.	.	.
8r	.	8r	.	8e/J	.	.	.	.	.	.	.	.	.
*	*	*	*	*rep	*	*	*	*	*	*	*	*	*
4A\	.	4A/	.	8c#/L	.	8a/)	.	8A/	.	8e\	.	8aa\)	.
.	.	.	.	8e/	.	8r	.	8r	.	8r	.	8r	.
8r	.	8r	.	8e/J	.	8a/	.	8r	.	8r	.	8aa\	.
*	*	*	*	*Xrep	*	*	*	*	*	*	*	*	*
!LO:LB:g=original	!	!	!	!	!	!	!	!	!	!	!	!	!
=105	=105	=105	=105	=105	=105	=105	=105	=105	=105	=105	=105	=105	=105
4E\	.	4G#/	.	(8B/L	.	4b\	.	4e\	.	4e\	.	4bb\	.
.	.	.	.	8e/	.	.	.	.	.	.	.	.	.
8r	.	8G#/	.	8e/J)	.	8b\	.	8r	.	8r	.	8bb\	.
4E\	.	(8G#/L	.	(8B/L	.	(8b\L	.	4r	.	4r	.	8bb\L	.
.	.	8A/	.	8c#/	.	8cc#\	.	.	.	.	.	8ccc#\	.
8r	.	8B/J)	.	8d/J)	.	8dd\J)	.	8e\	.	8e\	.	8ddd\J	.
=106	=106	=106	=106	=106	=106	=106	=106	=106	=106	=106	=106	=106	=106
4A\	.	(4.G#/	.	8d/L	.	(4.dd\	.	4.A/	.	[4.e\	.	(4.ddd\	.
.	.	.	.	8e/	.	.	.	.	.	.	.	.	.
8r	.	.	.	8e/J	.	.	.	.	.	.	.	.	.
!LO:TX:b:t=a	!	!	!	!	!	!	!	!	!	!	!	!	!
4AA\	.	4A/)	.	8c#/L	.	8cc#\)	.	8A/	.	8e\]	.	4ccc#\)	.
.	.	.	.	8e/	.	8r	.	8r	.	8r	.	.	.
8r	.	8r	.	8e/J	.	8ee\	.	8r	.	8r	.	8r	.
=107	=107	=107	=107	=107	=107	=107	=107	=107	=107	=107	=107	=107	=107
4A\	.	4A/	.	8c#/L	.	8cc#\	.	4A/	.	4e\	.	8r	.
.	.	.	.	8e/	.	8r	.	.	.	.	.	8eee\L	.
8r	.	8r	.	8e/J	.	8ee\	.	8r	.	8r	.	8eee\J	.
!	!	!	!	!LO:LB:g=original	!	!	!	!	!	!	!	!	!
4E\	.	4G#/	.	8B/L	.	8b\	.	4e\	.	4e\	.	8r	.
.	.	.	.	8e/	.	8r	.	.	.	.	.	8eee\L	.
!	!	!	!	!	!	!LO:TX:a:t=P:problem:po tym takcie ptrzekreślone nuty	!	!	!	!	!	!	!
8r	.	8r	.	8e/J	.	8ee\	.	8r	.	8r	.	8eee\J	.
!	!	!	!	!	!	!LO:LB:g=original	!	!	!	!	!	!	!
=108	=108	=108	=108	=108	=108	=108	=108	=108	=108	=108	=108	=108	=108
4.BB/	.	(4.d#X\	rf	8f#/L	.	(4a\	.	4.f#\	rf	4.f#\	.	4.ddd#X\	.
.	.	.	.	8a/	rf	.	.	.	.	.	.	.	.
!	!	!	!	!	!	!	!	!	!	!	!LO:DY:t=rf.	!	!
.	.	.	.	8a/J	.	8aa\)	.	.	.	.	rf	.	.
4.C#/	rf	4.e\)	.	8e/L	.	4gg#\	.	4.e\	.	4.e\	.	4.eee\	.
.	.	.	.	8g#/	.	.	.	.	.	.	.	.	.
.	.	.	.	8g#/J	.	8gg#\	.	.	.	.	.	.	.
=109	=109	=109	=109	=109	=109	=109	=109	=109	=109	=109	=109	=109	=109
!	!	!	!	!	!	!	!	!LO:TX:a:t=3	!	!LO:TX:a:t=3	!	!	!
.	.	.	.	.	.	16qqgg#/	.	.	.	.	.	.	.
!	!	!	!	!	!	!	!	!LO:N:vis=0	!	!LO:N:vis=0	!	!	!
4.AA/	.	4.c#/	.	8c#/L	.	4ff#\	.	1.r	.	1.r	.	4.ccc#\	.
.	.	.	.	8f#/	.	.	.	.	.	.	.	.	.
.	.	.	.	8f#/J	.	8ff#\	.	.	.	.	.	.	.
.	.	.	.	.	.	8qqee/	.	.	.	.	.	.	.
4.BB/	.	4.A/	.	8B/L	.	(8dd#X\L	.	.	.	.	.	4.aa\	.
.	.	.	.	8f#/	.	8cc#\	.	.	.	.	.	.	.
.	.	.	.	8f#/J	.	8dd#\J)	.	.	.	.	.	.	.
=110	=110	=110	=110	=110	=110	=110	=110	=110	=110	=110	=110	=110	=110
!LO:TX:a:t=P:problem:mixed beam	!LO:DY:rj	!	!	!	!	!	!	!	!	!	!	!	!
8EE/L	p	(4.A/	.	4.d#X/	.	(4.ff#\	.	.	.	.	.	(4.aa\	.
8E\	.	.	.	.	.	.	.	.	.	.	.	.	.
8E\J	.	.	.	.	.	.	.	.	.	.	.	.	.
4E\	.	8G#X/)	.	8e/	.	8ee\)	.	.	.	.	.	4.gg#X\)	.
!	!	!	!	!LO:N:vis=16	!	!	!	!	!	!	!	!	!
.	.	8r	.	8r	.	8r	.	.	.	.	.	.	.
8r	.	8c#\	.	8e/	p	8ee\	p	.	.	.	.	.	.
!	!	!LO:LB:g=original	!	!	!	!	!	!	!	!	!	!LO:LB:g=original	!
=111	=111	=111	=111	=111	=111	=111	=111	=111	=111	=111	=111	=111	=111
!LO:TX:a:t=1	!	!	!	!	!	!	!	!	!	!	!	!	!
2.r	.	(8c#/L	p	(8e/L	.	(8ee\L	.	2.r	.	2.r	.	4r	.
.	.	8A/	.	8c#/	.	8cc#\	.	.	.	.	.	.	.
.	.	8B/J)	.	8dn/J)	.	8dd\J)	.	.	.	.	.	8r	.
.	.	(8c#/L	.	(8e/L	.	(8ee\L	.	.	.	.	.	4r	.
!	!	!LO:SIC:v:s=8A	!	!	!	!	!	!	!	!	!	!	!
.	.	8B/	.	8c#/	.	8cc#\	.	.	.	.	.	.	.
.	.	8c#/J)	.	8e/J)	.	8aa\J)	.	.	.	.	.	8ee\	.
!	!	!	!	!	!	!	!	!	!	!LO:LB:g=original	!	!	!
=112	=112	=112	=112	=112	=112	=112	=112	=112	=112	=112	=112	=112	=112
*	*	*	*	*	*	*	*	*tremolo	*	*	*	*	*
!LO:TX:a:t=P:problem:mixed beam	!	!	!	!	!	!	!	!	!	!	!	!	!
8EE/L	.	(4.c#/	.	(4.e/	.	(4.ee\	.	8e\L	.	8e\L	.	8ee\L	.
8E\	.	.	.	.	.	.	.	8e\	.	8e\	.	8aa\	.
8E\J	.	.	.	.	.	.	.	8e\J	.	8e\J	.	8ccc#\J	.
*	*	*	*	*	*	*	*	*Xtremolo	*	*	*	*	*
4E\	.	8B/)	.	8d/)	.	8dd\)	.	4e\	.	4e\	.	4eee\	.
.	.	8r	.	8r	.	8r	.	.	.	.	.	.	.
8r	.	8B/	.	8d/	.	8dd\	.	8r	.	8r	.	8r	.
!	!	!	!	!	!	!	!	!LO:LB:g=original	!	!	!	!	!
=113	=113	=113	=113	=113	=113	=113	=113	=113	=113	=113	=113	=113	=113
!LO:TX:a:t=1	!	!	!	!	!	!	!	!LO:TX:a:t=1	!	!LO:TX:a:t=1	!	!	!
2.r	.	(8B/L	.	(8d/L	.	(8dd\L	.	2.r	.	2.r	.	4r	.
.	.	8G#/	.	8B/	.	8b\	.	.	.	.	.	.	.
.	.	8A/J)	.	8c#/J)	.	8cc#\J)	.	.	.	.	.	8r	.
.	.	8B/L	.	(8d/L	.	(8dd\L	.	.	.	.	.	4r	.
.	.	8G#/	.	8B/	.	8b\	.	.	.	.	.	.	.
.	.	8B/J	.	8d/J)	.	8bb\J)	.	.	.	.	.	8ee\	.
!LO:PB:g=original	!	!	!	!	!	!	!	!	!	!	!	!	!
=114	=114	=114	=114	=114	=114	=114	=114	=114	=114	=114	=114	=114	=114
*	*	*	*	*	*	*	*	*tremolo	*	*	*	*	*
!LO:TX:a:t=P:problem:mixed beam	!	!	!	!	!	!	!	!	!	!	!	!	!
8AA/L	.	4.B/	.	4.d/	.	(4.dd\	.	8AA/L	.	8A/L	.	8ee\L	.
8A\	.	.	.	.	.	.	.	8AA/	.	8A/	.	8gg#\	.
8A\J	.	.	.	.	.	.	.	8AA/J	.	8A/J	.	8bb\J	.
*	*	*	*	*	*	*	*	*Xtremolo	*	*	*	*	*
4A\	.	8A/	.	8c#/	.	8cc#\)	.	8AA/L	.	4A/	.	4eee\	.
.	.	8r	.	8r	.	8r	.	8AA/J	.	.	.	.	.
8r	.	8r	.	8r	.	8ee\	.	8r	.	8r	.	8r	.
=115	=115	=115	=115	=115	=115	=115	=115	=115	=115	=115	=115	=115	=115
4AA/	.	4A/	.	8c#/L	.	8cc#\	.	4A/	.	4e\	.	8r	.
.	.	.	.	8e/	.	8r	.	.	.	.	.	8eee\L	.
8r	.	8r	.	8e/J	.	8ee\	.	8r	.	8r	.	8eee\J	.
4E\	.	4G#/	.	8B/L	.	8b\	.	4e\	.	4e\	.	8r	.
.	.	.	.	8e/	.	8r	.	.	.	.	.	8eee\L	.
8r	.	8r	.	8e/J	.	8ee\	.	8r	.	8r	.	8eee\J	.
=116	=116	=116	=116	=116	=116	=116	=116	=116	=116	=116	=116	=116	=116
!	!	!	!	!LO:TX:a:t=P:problem:takt zapisany repetycją	!	!	!	!	!	!	!	!	!
4AA/	.	4A/	.	8c#/Lyy	.	8cc#\	.	4A/	.	4e\	.	8r	.
.	.	.	.	8e/yy	.	8r	.	.	.	.	.	8eee\L	.
8r	.	8r	.	8e/Jyy	.	8ee\	.	8r	.	8r	f	8eee\J	.
8E\	.	8G#/	.	8B/Lyy	.	8b\	.	4e\	.	4e\	.	8r	.
8r	.	8r	.	8e/yy	.	8r	.	.	.	.	.	8eee\L	.
!	!	!	!	!	!	!	!	!	!LO:DY:t=f.	!	!	!	!
8C#/	.	8A/	rf	8e/Jyy	.	8aa\	.	8A/	f	8e\	.	8eee\J	.
=117	=117	=117	=117	=117	=117	=117	=117	=117	=117	=117	=117	=117	=117
!	!	!	!	!	!LO:DY:a	!	!	!	!	!	!	!	!
4.D\	.	(4A/	.	8A/L	ff	4ff#\	rf	4d\	.	4f#\	.	4r	.
.	.	.	.	8f#/	.	.	.	.	.	.	.	.	.
.	.	8B/)	.	8d/J	.	8dd\	.	8r	.	8r	.	8ddd\	.
4E\	.	8.A/L	.	8.c#/L	.	8.cc#\L	.	4r	.	4r	.	(8.ccc#\L	.
.	.	16B/K	.	16d/K	.	16dd\K	.	.	.	.	.	16ddd\K	.
8EE/	.	8G#/J	.	8B/J	.	8b\J	.	8e\	.	8e\	.	8bb\J)	.
=118	=118	=118	=118	=118	=118	=118	=118	=118	=118	=118	=118	=118	=118
*	*	*	*	*^	*	*	*	*	*	*	*	*	*
!LO:TX:a:t=P:problem:mixed beam	!	!	!	!	!	!	!	!	!	!	!	!	!	!
8AA/L	.	4.G#/	.	4.e/	4.d\	.	(4.b/	.	4.A/	.	4.e\	.	(4.bb\	.
8A\	.	.	.	.	.	.	.	.	.	.	.	.	.	.
8A\J	.	.	.	.	.	.	.	.	.	.	.	.	.	.
4A\	.	8A/	.	8e/	8c#\	.	8a/)	.	8A/	.	8e\	.	4aa\)	.
*	*	*	*	*v	*v	*	*	*	*	*	*	*	*	*
.	.	8r	.	8r	.	8r	.	8r	.	8r	.	.	.
8r	.	8r	.	8r	.	8ee\	p	8r	.	8r	.	8r	.
.	.	.	.	.	.	.	.	.	p	.	p	.	.
=119	=119	=119	=119	=119	=119	=119	=119	=119	=119	=119	=119	=119	=119
!	!	!	!	!	!LO:DY:a	!	!	!	!	!	!	!	!
4A\	.	4A/	.	8c#/L	p	8cc#\	.	4A/	.	4e\	.	8r	.
.	.	.	.	8e/	.	8r	.	.	.	.	.	8eee\L	.
8r	.	8r	.	8e/J	.	8ee\	.	8r	.	8r	.	8eee\J	.
4E\	.	4G#/	.	8B/L	.	8b\	.	4e\	.	4e\	.	8r	.
.	.	.	.	8e/	.	8r	.	.	.	.	.	8eee\L	.
8r	.	8r	.	8e/J	.	8ee\	.	8r	.	8r	.	8eee\J	.
!	!	!LO:PB:g=original	!	!	!	!LO:LB:g=original	!	!	!	!	!	!	!
=120	=120	=120	=120	=120	=120	=120	=120	=120	=120	=120	=120	=120	=120
!	!	!	!	!LO:TX:a:t=P:problem:takt zapisany repetycją	!LO:DY:a	!	!	!	!	!	!	!	!
4A\	.	4A/	.	8c#/Lyy	p	8cc#\	.	4A/	.	4e\	.	8r	.
.	.	.	.	8e/yy	.	8r	.	.	.	.	.	8eee\L	.
8r	.	8r	.	8e/Jyy	.	8ee\	.	8r	.	8r	.	8eee\J	.
!	!	!	!	!	!	!	!	!	!	!	!LO:DY:t=f.	!	!
8E\	f	8G#/	.	8B/Lyy	.	8b\	.	4e\	f	4e\	f	8r	.
8r	.	8r	.	8e/yy	.	8r	.	.	.	.	.	8eee\L	.
!	!	!	!	!	!	!	!LO:DY:t=f.	!	!	!	!	!	!
8C#/	.	8A/	f	8e/Jyy	.	8aa\	f	8e\	.	8e\	.	8eee\J	.
!LO:LB:g=original	!	!	!	!	!	!	!	!	!	!LO:LB:g=original	!	!	!
=121	=121	=121	=121	=121	=121	=121	=121	=121	=121	=121	=121	=121	=121
4.D\	.	(4A/	.	(8A/L	.	(4ff#\	.	4d\	.	4f#\	.	8r	.
!	!	!	!	!	!LO:DY:a:t=rf.	!	!	!	!	!	!	!	!
.	.	.	.	8f#/	rf	.	.	.	.	.	.	8r	.
.	.	8B/	.	8d/J)	.	8dd\)	.	8r	.	8r	.	8ddd\	.
!	!	!	!	!LO:LB:g=original	!	!	!	!	!	!	!	!LO:LB:g=original	!
8E\	.	8.A/L)	.	8.c#/L	.	8.cc#\L	.	4r	.	4r	.	8.ccc#\L	.
8r	.	.	.	.	.	.	.	.	.	.	.	.	.
.	f	16B/K	.	16d/K	.	16dd\K	.	.	.	.	.	16ddd\K	.
8EE/	.	8G#/J	.	8B/J	.	8b\J	.	8e\	.	8e\	.	8bb\J	.
=122	=122	=122	=122	=122	=122	=122	=122	=122	=122	=122	=122	=122	=122
!	!	!	!	!	!	!	!	!LO:TX:a:t=P:problem:brak taktu	!	!	!	!	!
4AA/	.	4A/	.	4c#/	.	8a/	.	2.ryy	.	4e\	.	4aa\	.
.	.	.	.	.	.	4r	.	.	.	.	.	.	.
8r	.	8r	.	8r	.	.	.	.	.	8r	.	8r	.
4r	.	4r	.	(8a\L	p	(8cc#\L	p	.	.	4r	.	4r	.
.	.	.	.	8b\	.	8dd\	.	.	.	.	.	.	.
8r	.	8r	.	8cc#\J)	.	8ee\J)	.	.	.	8r	.	8r	.
=123	=123	=123	=123	=123	=123	=123	=123	=123	=123	=123	=123	=123	=123
4r	.	4r	.	4.cc#\	.	4.ee\	.	4r	.	4r	.	4r	.
8r	.	8r	p	.	.	.	.	8r	.	8r	pp	8r	.
.	.	.	.	16qqcc#/	.	8qqee/	.	.	.	.	.	.	.
(<4.E\	p	(4.G#/	.	8b\L	.	(8dd\L	.	4.e\	pp	4.e\	.	4.eee\	pp
.	.	.	.	8a\	.	8cc#\	.	.	.	.	.	.	.
.	.	.	.	8b\J	.	8dd\J)	.	.	.	.	.	.	.
=124	=124	=124	=124	=124	=124	=124	=124	=124	=124	=124	=124	=124	=124
4AA/)	.	4A/)	.	4a/	.	4cc#\	.	4A/	.	4e\	.	4ccc#\	.
!	!	!	!	!	!LO:DY:t=pp.	!	!	!	!	!	!	!	!
8r	.	8r	.	8r	pp	8r	.	8r	.	8r	.	8r	.
!	!	!	!	!	!	!	!LO:DY:t=pp.	!	!	!	!	!	!
4r	.	4r	.	(8c#/L	.	8a\L	pp	4r	.	4r	.	4r	.
.	.	.	.	8d/	.	8b\	.	.	.	.	.	.	.
8r	.	8r	.	8e/J)	.	8cc#\J	.	8r	.	8r	.	8r	.
=125	=125	=125	=125	=125	=125	=125	=125	=125	=125	=125	=125	=125	=125
4r	.	4r	.	4.e/	.	4.cc#\	.	4r	.	4r	.	4r	.
8r	.	8r	.	.	.	.	.	8r	.	8r	.	8r	.
.	p	.	.	16qqe/	.	8qqcc#/	.	.	.	.	.	.	.
!	!	!	!LO:DY:a	!	!	!	!	!	!	!	!	!	!
4.E\	.	(4.G#/	pp	8d/L	.	8b\L	.	4.e\	.	4.e\	.	(4.eee\	.
.	.	.	.	8c#/	.	8a\	.	.	.	.	.	.	.
.	.	.	.	8d/J	.	8b\J	.	.	.	.	.	.	.
=126	=126	=126	=126	=126	=126	=126	=126	=126	=126	=126	=126	=126	=126
*	*	*	*	*^	*	*	*	*	*	*	*	*	*
8AA/	.	8A/)	.	8c#/	8ryy	.	8a\	.	8A/	.	8e\	.	8ccc#\)	.
8r	.	8r	.	(>8r	8ryy	.	8r	.	8ryy	.	8ryy	.	8r	.
.	.	.	.	.	.	.	8qqcc#/	.	.	.	.	.	.	.
8E\	.	(8G#/	.	8e/)	8d\	.	8b\	.	8ryy	.	8r	.	8eee\	.
8AA/	.	8A/)	.	8e/	8c#\	.	8a\	.	4r	.	4r	.	8ccc#\	.
8r	.	8r	.	(>8r	8ryy	.	8r	.	.	.	.	.	8r	.
.	.	.	.	.	.	.	16qqcc#/	.	.	.	.	.	.	.
8E\	.	(8G#/	.	8e/)	8d\	.	8b\	.	8r	.	8r	.	(8eee\	.
*	*	*	*	*v	*v	*	*	*	*	*	*	*	*	*
!	!	!LO:LB:g=original	!	!	!	!	!	!	!	!	!	!	!
=127	=127	=127	=127	=127	=127	=127	=127	=127	=127	=127	=127	=127	=127
!	!	!	!	!	!	!	!	!LO:TX:a:t=2	!	!LO:TX:a:t=2	!	!	!
!	!	!	!	!	!	!	!	!LO:N:vis=0	!	!LO:N:vis=0	!	!	!
4AA/	.	8A/)	.	4e 4c#/	.	4a/	.	1.r	.	1.r	.	8ccc#\)	.
.	.	8r	.	.	.	.	.	.	.	.	.	8r	.
8r	.	8r	.	8r	.	8r	.	.	.	.	.	8r	.
4AA/	.	8A/	.	4e 4c#/	.	4a/	.	.	.	.	.	4aa\	.
.	.	8r	.	.	.	.	.	.	.	.	.	.	.
8r	.	8r	.	8r	.	8r	.	.	.	.	.	8r	.
!LO:LB:g=original	!	!	!	!	!	!	!	!	!	!	!	!	!
=128	=128	=128	=128	=128	=128	=128	=128	=128	=128	=128	=128	=128	=128
4AA/	.	4A/	.	4e 4c#/	.	4a/	.	.	.	.	.	4aa\	.
8r	.	8r	.	8r	.	8r	.	.	.	.	.	8r	.
4r	.	4r	.	4r	.	4r	.	.	.	.	.	4r	.
8ryy	.	8r	.	8r	.	8r	.	.	.	.	.	8r	.
==	==	==	==	==	==	==	==	==	==	==	==	==	==
*-	*-	*-	*-	*-	*-	*-	*-	*-	*-	*-	*-	*-	*-
!!!system-decoration: s1[g1][g2]
!!!RDF**kern: > = above
!!!RDF**kern: < = below
!!!RDF**dynam: < = "cres."
!!!ENC: Andrzej Borzym
!!!END: 2020-06-10
!!!ENC: Zofia Niedbalska
!!!END: 2020-12-07
